!!!COM: Beethoven, Ludwig van
!!!CDT: 1770///-1827///
!!!OTL: Piano Sonata no. 29 in B-flat major
!!!OTP: hammerklavier
!!!OPS: 106
!!!OMV: 4
!!!OMD: Introduzione: Largo---Fuga: Allegro risoluto
**kern	**kern	**dynam
*staff2	*staff1	*staff1/2
*clefF4	*clefG2	*clefG2
*k[b-e-]	*k[b-e-]	*k[b-e-]
*B-:	*B-:	*B-:
*M6/4	*M6/4	*M6/4
*MM40	*MM40	*MM40
=1-	=1-	=1-
16r	16r	.
48FF\LLL	48r	.
48F\JJJ	48r	.
48r	(48F/	p
48r	48f/)	.
*clefG2	*	*
48f\LLL	48r	.
48ff\JJJ	48r	.
*clefF4	*	*
48r	48ff/	.
48r	[48fff/LLL	.
[48FFF/ [48FF/	48fff/JJJ_	.
16.FFF;/] 16.FF;/]	16.ff;\ 16.fff;\]	.
32r	[32ff\ [32fff\LLK	.
16r	16ff\] 16fff\JJ]	.
16FF/ 16F/	16r	.
16r	16.r	.
16r	.	.
.	[32ff\ [32aa-\ [32ddd-\ [32fff\LLK	.
16r	16ff\] 16aa-\] 16ddd-\] 16fff\JJ]	.
16DD-/ 16D-/	16r	.
16r	16.r	.
16r	.	.
.	[32ff\ [32bb-\ [32ddd-\ [32fff\LLK	.
16r	16ff\] 16bb-\] 16ddd-\] 16fff\JJ]	.
16BBB-/ 16BB-/	16r	.
16r	16.r	.
16r	.	.
.	[32gg-\ [32bb-\ [32ddd-\ [32ggg-\	.
16r	8gg-\_ 8bb-\_ 8ddd-\_ 8ggg-\L_	.
[16GGG-/ [16GG-/LL	.	.
32GGG-;/] 32GG-;/JJk]	32gg-;\] (32bb-;\] 32ddd-;\] 32ggg-;\Jkk]	.
32r	32dd-\LLL	.
16r	32gg-\	.
.	32dd-\JJJ	.
8r	32gg-\LLL	.
.	32dd-\	.
.	32gg-\	.
.	32b-\JJJ)	.
!!=2	=2	=2
!!*M6/4	*M6/4	*M6/4
*	*^	*
4r	4ee-/	32r	.
.	.	(32g-\LLL	.
.	.	32cc-\	.
.	.	32g-\	.
.	.	32cc-\	.
.	.	32g-\	.
.	.	32cc-\	.
.	.	32e-\JJJ	.
32r	16ee-/LK	32f\LLL)	.
(32F\LLL	.	32a-\	.
32A-\	8dd-/	32f\	.
32F\	.	32a-\	.
32A-\	.	32f\	.
32F\	.	32a-\	.
32A-\	&(16cc-/Jk&)	32f\	.
32D-\JJJ)	.	32a-\JJJ	.
(16G-\LL	(16b-/LL	16g-\LL	<
16Cn\	16b--/ 16ee-/	16g-\	.
16D-\	[16a-/	[16f\	>
16GG-\JJ)	32.a-/L]	32.f\L]	.
.	64b-/JJJk	64g-\JJJk	.
16r	4r	16b-\ 16dd-\ 16gg-\ 16bb-\)	.
16GG-/ 16G-/	.	16r	p
16r	.	16.r	.
16r	.	.	.
.	.	[32b-\ [32ee-\ [32gg-\ [32bb-\	.
16r	4r	16b-\] 16ee-\] 16gg-\] 16bb-\]	.
16EE-/ 16E-/	.	16r	.
16r	.	16.r	.
16r	.	.	.
.	.	32ee-\ 32gg-\ (32eee-\	.
32BBBn;/ 32BBn;/	4r	&(32dd#;\&) 32ff#;\ 32ddd#;\)	.
32r	.	32r	.
16r	.	16r	.
8r	.	8r	.
*	*v	*v	*
=3	=3	=3
*k[f#c#g#d#a#]	*k[f#c#g#d#a#]	*k[f#c#g#d#a#]
*M5/4	*M5/4	*M5/4
32r	32r	.
32F#\LLL	32r	.
32G#\	16r	.
32A#\	.	.
32B\	8r	.
32c#\	.	.
32d#\	.	.
32e\JJJ	.	.
32d#\LLL	32r	.
32B\	32f#\LLL	.
32f#\	32g#\	.
32e\	32a#\	.
32d#\	32b\	.
32c#\	32cc#\	.
32B\	32dd#\	.
32A#\JJJ	32ee\JJJ	.
32B\LLL	32dd#\LLL	.
32F#\	32b\	.
32G#\	32ff#\	.
32A#\	32ee\	.
32B\	32dd#\	.
32c#\	32cc#\	.
32d#\	32b\	.
32e\JJJ	32a#\JJJ	.
32d#\	32b\LLL	.
*clefG2	*	*
32dd#\LLL	32ff#\	.
32ff#\	32gg#\	.
32ee\	32aa#\	.
32dd#\	32bb\	.
32cc#\	32ccc#\	.
32b\	32ddd#\	.
32a#\JJJ	32eee\JJJ	.
32b/LLL	32ddd#\LLL	.
32a#/	32ccc#\	.
32dd#/	32bb\	.
32cc#/	32aa#\	.
32b/	32gg#\	.
32a#/	32ff#\	.
32g#/	32ee\	.
32f#/JJJ	32dd#\JJJ	.
!!=4	=4	=4
32e/LLL	32cc#\LLL	<
32d#/	32b\	.
32c#/	32a#\	.
32B/	32g#\	.
32A#/	32f#\	.
32c#/	32ee\	.
32B/	32dd#\	.
32e/JJJ	32gg#\JJJ	.
32d#/LLL	32ff#\LLL	>
32dn/	32bb\	.
32c#/	32aa#\	.
32F#/JJJ	32eee\JJJ	.
*clefF4	*	*
16.F#;\ 16.c#;\ 16.f#;\	16.ee;\ 16.aa#;\ 16.eee;\	.
16r	[32dd#\ [32ff#\ [32bb\ [32ddd#\	.
.	16dd#\] 16ff#\] 16bb\] 16ddd#\]	.
16BBB/ 16BB/	.	.
.	16r	.
16r	.	.
.	16r	.
16r	.	.
.	[32dd#\ [32gg#\ [32bb\ [32ddd#\	.
=5	=5	=5
*M4/4	*M4/4	*M4/4
8GGG#/ 8GG#/	16dd#\] 16gg#\] 16bb\] 16ddd#\LL]	.
.	16dd#\	.
8r	16g#\	.
.	16dd#\JJ	.
4r	16ee\LL	.
.	16dd#\	.
.	16g#\	.
.	16dd#\JJ	.
16r	[2ee\	.
*clefG2	*	*
16g#/LL	.	.
16c#/	.	.
16g#/JJ	.	.
16a#/LL	.	.
16g#/	.	.
16c#/	.	.
16g#/JJ	.	.
=6	=6	=6
4.f##/	16ee\LL]	.
.	16a#\	.
.	16dd#\	.
.	16cc##\JJ	.
.	16dd#\LL	.
.	16a#\	.
[8f#/	16dd#\	.
.	16cc#\JJ	.
8f#/L]	16b#\LL	.
.	16dd#\	.
8f#/	16b#\	.
.	16gg#\JJ	.
8e/	16cc#\LL	.
.	16gg#\	.
8d#/J	16dd#\	.
.	16gg#\JJ	.
*clefF4	*	*
=7	=7	=7
*M4/4	*M4/4	*M4/4
16c#\LL	4ee\	.
16G#\	.	.
16C#\	.	.
16G#\JJ	.	.
16An\LL	[4e/	.
16G#\	.	.
16C#\	.	.
16G#\JJ	.	.
4.A\	16e/LL]	.
.	16c#/	.
.	16f#/	.
.	16e#/JJ	.
.	16f#/LL	.
.	16c#/	.
8G#\	16f#/	.
.	16en/JJ	.
=8	=8	=8
*^	*^	*
16A#/LL	2F#\	2.r	8d#/	.
16c#/	.	.	.	.
16A#/	.	.	4dd#\	.
16d#/JJ	.	.	.	.
16e/LL	.	.	.	.
16d#/	.	.	.	.
16A#/	.	.	8cc#\	.
16d#/JJ	.	.	.	.
16G#/LL	4r	.	16b\LL	.
16B/	.	.	16dd#\	.
16G#/	.	.	16b\	.
16B/JJ	.	.	16dd#\JJ	.
16c#/LL	8r	[4bb/	16ee\LL	.
16B/	.	.	16dd#\	.
16G#/	8BB\	.	16b\	.
16B/JJ	.	.	16dd#\JJ	.
=9	=9	=9	=9	=9
8E/	4.C#\	16bb/LL]	4ee\	.
.	.	16gg#/	.	.
4c#/	.	16aan/	.	.
.	.	16ccc#/JJ	.	.
.	.	16ee/LL	8an\L	.
.	.	16aa/	.	.
8B/	8D#\	16dd#/	8b\J	.
.	.	16gg#/JJ	.	.
8B/L	4.D#\	16dd#/LL	8b\L	.
.	.	16gg#/	.	.
8A#/	.	16dd#/	8cc#\	.
.	.	16ff##/JJ	.	.
8G#/	.	16dd#/LL	8b\	f
.	.	16gg#/	.	.
8F##/J	8D#\	16dd#/	8a#\J	.
.	.	16aa#/JJ	.	.
*v	*v	*	*	*
*	*v	*v	*
=10	=10	=10
*M4/4	*M4/4	*M4/4
8r;	8..r;	.
8r	.	.
.	[32b\ [32dd#\ [32gg#\ [32bb\	p
16r	16b\] 16dd#\] 16gg#\] 16bb\]	.
16GG#/ 16G#/	16r	.
16r	16.r	.
16r	.	.
.	[32b\ [32ee\ [32gg#\ [32bb\	.
16r	8b\] 8ee\] 8gg#\] 8bb\]	.
16EE/ 16E/	.	.
16r	16r	.
16r	16r	.
16r	[32cc#\ [32ee\ [32gg#\ [32ccc#\	.
.	16cc#\] 16ee\] 16gg#\] 16ccc#\]	.
16CC#'/ 16C#'/	.	.
.	16r	.
16r	.	.
.	16r	.
16r	.	.
.	[32cc#\ [32ee\ [32aan\ [32ccc#\	.
=11	=11	=11
*M3/4	*M3/4	*M3/4
48r	16cc#\] 16ee\] 16aa\] 16ccc#\]	.
48AAAn/LLL	.	.
48AAn/JJJ	.	.
*	*clefF4	*clefF4
16r	(48AAn\LLL	.
.	48An\	.
.	48A\JJJ)	.
*	*clefG2	*clefG2
16r	(48an\LLL	.
.	48a\	.
.	[48aan\JJJ)	.
48r	48aa\LLL_	.
48r	48aa\_ [48aaa#\	.
48AAA/ 48AA/	48aa\_ 48aaa#\JJJ_	.
*k[f#c#g#]	*k[f#c#g#]	*k[f#c#g#]
*k[f#c#g#]	*k[f#c#g#]	*k[f#c#g#]
2AAA/ 2DD/ 2EE/ 2BB/	12aa\] (12aaa#\L]	.
.	12gg#\ 12ggg#\	.
.	12ee\ 12eee\J	.
.	12dd#\ 12ddd#\L	.
.	12ddn\ 12dddn\	.
.	12b\ 12bb\J)	.
=12	=12	=12
*M10/4	*M10/4	*M10/4
[1AAA [1DD [1EE [1BB	24gg#\LL	.
.	24ee\	.
.	24dd#\	.
.	24ddn\	.
.	24b\	.
.	24g#\JJ	.
.	(24e/LL	.
.	24d#/	.
.	24dn/JJ	.
*	*clefF4	*clefF4
.	32B\LLL	.
.	32G#\	.
.	32E\	.
.	32D#\JJJ)	.
.	4.Dn\	.
.	[8D#\	.
2AAA/] 2DD/] 2EE/] 2BB/]	8D#\]	.
.	4.E;\	.
.	(D#q/LL	.
.	Eq/JJ	.
16r	[16C#\) [16E\LL	.
16AAA/ 16AA/	16C#\] 16E\JJ]	.
32.r	32C#\ 32E\LLK	.
.	32r	.
64AAA/ 64AA/	.	.
16r	16C#\ 16E\JJ	.
16r	[16C#\ [16E\LL	.
16AAA/ 16AA/	16C#\] 16E\JJ]	.
32.r	32C#\ 32A\LLK	.
.	32r	.
64FFF#/ 64FF#/	.	.
16r	16C#\ 16F#\ 16A\JJ	.
16r	[16F#\ [16A\LL	.
16DD/ 16D/	16F#\] 16A\JJ]	.
32.r	32F#\ 32A\LLK	.
.	32r	.
64DD/ 64D/	.	.
16r	16F#\ 16A\JJ	.
16r	[16F#\ [16A\LL	.
16DD/ 16D/	16F#\] 16A\JJ]	.
32.r	32F#\ 32d\LLK	.
.	32r	.
64BBB/ 64BB/	.	.
16r	16F#\ 16B\ 16d\JJ	.
*	*clefG2	*clefG2
=13	=13	=13
*k[]	*k[]	*k[]
*M6/4	*M6/4	*M6/4
16r	[16B/ [16d/LL	.
16GG\ 16G\	16B/] 16d/JJ]	.
32.r	32B/ 32d/LLK	.
.	32r	.
64GG\ 64G\	.	.
16r	16B/ 16d/JJ	.
16r	[16B/ [16d/LL	.
16GG\ 16G\	16B/] 16d/JJ]	.
32.r	32B/ 32g/LLK	.
.	32r	.
64EE/ 64E/	.	.
16r	16B/ 16g/JJ	.
16r	[16e/ [16g/LL	.
16C\ 16c\	16e/] 16g/JJ]	.
32r	32e/ 32g/LLK	.
32C\ 32c\	32r	.
16r	16e/ 16g/JJ	.
16r	[16e/ [16cc/LL	.
16AA\ 16A\	16e/] 16cc/JJ]	.
32r	32e/ 32cc/LLK	.
32AA\ 32A\	32r	.
16r	16e/ 16cc/JJ	.
16r	[16a/ [16cc/LL	.
16FF/ 16F/	16a/] 16cc/JJ]	.
32r	32a/ 32cc/LLK	.
32FF/ 32F/	32r	.
16r	16a/ 16cc/JJ	.
16r	[16a\ [16ff\LL	.
16DD/ 16D/	16a\] 16ff\JJ]	.
32r	32a\ 32dd\ 32ff\LLK	.
32DD/ 32D/	32r	.
16r	16a\ 16dd\ 16ff\JJ	.
=14	=14	=14
*M6/4	*M6/4	*M6/4
16r	16a\ [16cc#\ ([16ee\ [16aa\LL	.
16AAA/ 16CC#/ 16EE/ 16AA/	16a\ 16cc#\] 16ee\]) 16aa\JJ]	.
32r	32a\ 32cc#\ 32ee\ 32aa\LLK	ff
32AAA/ 32CC#/ 32EE/ 32AA/	32r	.
16r	16a\ 16cc#\ 16ee\ 16aa\JJ	.
16r	16a\ [16cc#\ ([16ee\ [16aa\LL	.
16AAA/ 16CC#/ 16EE/ 16AA/	16a\ 16cc#\] 16ee\]) 16aa\JJ]	.
32r	32a\ 32cc#\ 32ee\ 32aa\LLK	.
32AAA/ 32CC#/ 32EE/ 32AA/	32r	.
16r	16a\ 16cc#\ 16ee\ 16aa\JJ	.
16r	[16a\ [16cc#\ [16ee\ [16aa\LL	.
16AAA/ 16CC#/ 16EE/ 16AA/	16a\] 16cc#\] 16ee\] 16aa\JJ]	.
32r	32a\ 32aa\LLK	.
32AAA/ 32AA/	32r	.
16r	16a\ 16aa\JJ	.
16r	[16a\ [16aa\LL	.
16AAA/ 16AA/	16a\] 16aa\JJ]	.
32r	32a\ 32aa\LLK	.
32AAA/ 32AA/	32r	.
16r	16a\ 16aa\JJ	>
16r	[16a\ [16aa\LL	.
16AAA/ 16AA/	16a\] 16aa\JJ]	.
32r	32a\ 32aa\LLK	.
32AAA/ 32AA/	32r	.
16r	16a\ 16aa\JJ	.
16r	[16a\ [16aa\LL	.
16FFF/ 16FF/	16a\] 16aa\JJ]	.
32r	32a\ 32aa\LLK	pp
32FFF/ 32FF/	32r	.
16r	16a\ 16aa\JJ	.
=15	=15	=15
*k[b-e-]	*k[b-e-]	*k[b-e-]
*M3/4	*M3/4	*M3/4
*MM110	*MM110	*MM110
8FFF/ 8FF/	[2.aa\	pp
8r	.	.
8F\ 8A\	.	.
8r	.	.
4r	.	.
=16	=16	=16
8FFF/ 8FF/	4aa\]	.
8r	.	.
8A\ 8c\	[2ccc\	.
8r	.	.
4r	.	.
=17	=17	=17
8FFF/ 8FF/	4ccc\]	<
8r	.	.
8F'\ 8A'\ 8c'\ 8f'\	[2fff\	.
8r	.	.
8FFF/ 8FF/	.	.
8r	.	.
=18	=18	=18
8F\ 8A\ 8c\ 8f\	16fff\LL]	f
.	16eee-\	.
8r	16ddd\	.
.	16ccc\JJ	.
4.FFF/ 4.FF/	16bb-\LL	ff
.	16aa\	.
.	16gg\	.
.	16ff\JJ	.
.	16ee-'\LL	.
.	16dd\	.
16GG/LL	16cc\	.
16AA/JJ	16ff\JJ	.
=19	=19	=19
8BBB-/ 8DD/ 8FF/ 8BB-/	8B-/ 8d/ 8f/ 8b-/	.
8r	8r	.
4r	8r	.
.	16g/LL	p
.	16f/JJ	.
4r	16e-/LL	.
.	16d/	.
.	16c/	.
.	16B-/JJ	.
*	*clefF4	*clefF4
=20	=20	=20
8F\	16A\LL	.
.	16B-\	.
8r	16A\	.
.	16G\JJ	.
*clefG2	*	*
2a/	16F\LL	.
.	16G\	.
.	16F\	.
.	16E-\JJ	.
.	16D\LL	.
.	16E-\	.
.	16D\	.
.	16C\JJ	.
=21	=21	=21
4b-/	4BB-/	.
8r	4r	.
16b-/LL	.	.
16a/JJ	.	.
16g/LL	4r	.
16f/	.	.
16e-/	.	.
16d/JJ	.	.
*	*clefG2	*clefG2
=22	=22	=22
4g/	2.r	.
8r	.	.
16g/LL	.	.
16f/JJ	.	.
16e-/LL	.	.
16d/	.	.
16c/	.	.
16B-/JJ	.	.
=23	=23	=23
4e-/	2.r	.
8r	.	.
16e-/LL	.	.
16d/JJ	.	.
16c/LL	.	.
16d/	.	.
16c/	.	.
16B-/JJ	.	.
*clefF4	*	*
=24	=24	=24
16A\LL	2.r	.
16B-\	.	.
16A\	.	.
16G\JJ	.	.
16F\LL	.	.
16G\	.	.
16A\	.	.
16B-\JJ	.	.
16Bn\LL	.	.
16c\	.	.
16d\	.	.
16c\JJ	.	.
=25	=25	=25
16B-\LL	2.r	.
16c\	.	.
16d\	.	.
16e-\JJ	.	.
16en\LL	.	.
16f\	.	.
16g\	.	.
16f\JJ	.	.
16e-\LL	.	.
16d\	.	.
16c\	.	.
16B-\JJ	.	.
=26	=26	=26
16A\LL	2.r	<
16B-\	.	.
16A\	.	.
16G\JJ	.	.
16F\LL	.	.
16G\	.	.
16A\	.	.
16B-\JJ	.	.
16Bn\LL	.	.
16c\	.	.
16d\	.	.
16c\JJ	.	.
*clefG2	*	*
=27	=27	=27
16B-/LL	2.r	.
16c/	.	.
16d/	.	.
16e-/JJ	.	.
16en/LL	.	.
16f/	.	.
16g/	.	.
16f/JJ	.	.
16B-/LL	.	.
16f#/	.	.
16g/	.	.
16f#/JJ	.	.
=28	=28	=28
16B-/LL	2.r	.
16g/	.	.
16a/	.	.
16g/JJ	.	.
16f#/LL	.	.
16g/	.	.
16a/	.	.
16g/JJ	.	.
16en/LL	.	.
16fn/	.	.
16g/	.	.
16f/JJ	.	.
=29	=29	=29
16en/LL	2.r	.
16f/	.	.
16g/	.	.
16f/JJ	.	.
16d/LL	.	.
16e-/	.	.
16f/	.	.
16e-/JJ	.	.
16c#/LL	.	.
16d/	.	.
16e-/	.	.
16d/JJ	.	.
=30	=30	=30
16c#/LL	8B-/	.
16d/	.	.
16e-/	8r	.
16d/JJ	.	.
16Bn/LL	2een\	>
16cn/	.	.
16d/	.	.
16c/JJ	.	.
16A/LL	.	.
16B-/	.	.
16c/	.	.
16B-/JJ	.	.
=31	=31	=31
.	ddq/LL	.
.	eeq/JJ	.
*	*^	*
2.r	4ff/	8r	.
.	.	8A'\	.
.	8r	4.a\	.
.	16ff/LL	.	.
.	16een/JJ	.	.
.	16dd/LL	.	.
.	16cc/	.	.
.	16b-/	8r	.
.	16a/JJ	.	.
*clefF4	*	*	*
=32	=32	=32	=32
2.r	4dd/	8r	.
.	.	8F'/	.
.	8r	4.f\	.
.	16dd/LL	.	.
.	16cc/JJ	.	.
.	16b-/LL	.	.
.	16a/	.	.
.	16g/	8r	.
.	16f/JJ	.	.
*	*v	*v	*
=33	=33	=33
*^	*	*
8r	2.r	4b-/	.
8D/L	.	.	.
(8d/	.	8r	.
8c/	.	16b-/LL	.
.	.	16a/JJ	.
8B-/	.	16g/LL	.
.	.	16a/	.
8Bn/J)	.	16g/	.
.	.	16f/JJ	.
=34	=34	=34	=34
8c/	2.r	16en/LL	.
.	.	16f/	.
8r	.	16e/	.
.	.	16d/JJ	.
4.B-^/	.	16c/LL	.
.	.	16d/	.
.	.	16e/	.
.	.	16f/JJ	.
.	.	16f#/LL	.
.	.	16g/	.
8B-/	.	16a/	.
.	.	16g/JJ	.
=35	=35	=35	=35
(8B-/L	2.r	16fn/LL	.
.	.	16g/	.
8A/	.	16a/	.
.	.	16b-/JJ	.
8G/	.	16bn/LL	.
.	.	16cc/	.
8F/	.	16dd/	.
.	.	16cc/JJ	.
8En/	.	16b-/LL	.
.	.	16a/	.
8F/J)	.	16g/	.
.	.	16f/JJ	.
=36	=36	=36	=36
8c/	2.r	16en/LL	<
.	.	16f/	.
8r	.	16e/	.
.	.	16d'/JJ	.
4.B-'^/	.	16c/LL	.
.	.	16d/	.
.	.	16e/	.
.	.	16f/JJ	.
.	.	16f#/LL	.
.	.	16g/	.
8A/	.	16a/	.
.	.	16fn/JJ	.
=37	=37	=37	=37
8d/	2.r	16en/LL	.
.	.	16f/	.
8r	.	16cc/	.
.	.	16b-/JJ	.
4.c#/	.	16a/LL	.
.	.	16b-/	.
.	.	16cc/	.
.	.	16b-/JJ	.
.	.	16g#/LL	.
.	.	16a/	.
8cn/	.	16b-/	.
.	.	16a/JJ	.
=38	=38	=38	=38
8f/	2.r	16gn\LL	.
.	.	16a-\	.
8r	.	16ee-\	.
.	.	16dd\JJ	.
4.en/	.	16cc\LL	.
.	.	16cc#\	.
.	.	16dd\	.
.	.	16cc#\JJ	.
.	.	16bn\LL	.
.	.	16ccn\	.
8e-/	.	16dd\	.
.	.	16cc\JJ	.
*v	*v	*	*
=39	=39	=39
*	*^	*
8FF'/	16g#/LL	2e-\	f
.	16an/	.	.
8r	16b-/	.	.
.	16a/JJ	.	.
2A\	16en/LL	.	f
.	16f/	.	.
.	16gn/	.	.
.	16f/JJ	.	.
.	16bn/LL	[4f\	.
.	16cc/	.	.
.	16dd/	.	.
.	16cc/JJ	.	.
=40	=40	=40	=40
4B-\	8r	8f\]	.
.	8d/	8r	.
8r	4.dd/	8r	.
16B-\LL	.	8a\	.
16A\JJ	.	.	.
16G\LL	.	4b-\	.
16F\	.	.	.
16E-\	8r	.	.
16D\JJ	.	.	.
=41	=41	=41	=41
4G\	8r	4r	.
.	8B-/	.	.
8r	4.b-/	8r	.
16G\LL	.	8f#\	.
16F\JJ	.	.	.
16E-\LL	.	4g\	.
16D\	.	.	.
16C\	8r	.	.
16BB-\JJ	.	.	.
=42	=42	=42	=42
4E-\	8r	4r	.
.	8g/L	.	.
8r	8gg/	8r	.
16E-/LL	8ff/	8bn\L	.
16D/JJ	.	.	.
16C/LL	8ee-/	8cc\	.
16D/	.	.	.
16C/	8een/J	8g\J	.
16BB-/JJ	.	.	.
=43	=43	=43	=43
16AA/LL	8ff/	8cc\L	.
16BB-/	.	.	.
16AA/	8r	8f\	.
16GG/JJ	.	.	.
16FF/LL	4.ee-/	8cc\	.
16GG/	.	.	.
16AA/	.	8g-\J	.
16BB-/JJ	.	.	.
16BBn/LL	.	[4f\	.
16C/	.	.	.
16D/	8ee-/	.	.
16C/JJ	.	.	.
=44	=44	=44	=44
16BB-\LL	(8ee-/L	8f\L]	.
16C\	.	.	.
16D\	8dd/	8f\	.
16E-\JJ	.	.	.
16En\LL	8cc/	8e-\	.
16F\	.	.	.
16G\	8b-/	8d\	.
16F\JJ	.	.	.
16E-\LL	8a/	8c\	.
16D\	.	.	.
16C\	8b-/J)	8d\J	.
16BB-\JJ	.	.	.
=45	=45	=45	=45
16AA/LL	8r	8f\	.
16BB-/	.	.	.
16AA/	8bn/L	8r	.
16GG/JJ	.	.	.
16FF/LL	8cc/	4.e-\	.
16GG/	.	.	.
16AA/	8g-/J	.	.
16BB-/JJ	.	.	.
16AA/LL	4f/	.	.
16BB-/	.	.	.
16C/	.	8d\	.
16D/JJ	.	.	.
=46	=46	=46	=46
16E-\LL	8aa-/	8r	.
16F\	.	.	.
16G\	8r	8b-\L	.
16E-\JJ	.	.	.
16C#\LL	4.ggn/	8een\	.
16D\	.	.	.
16En\	.	[8b-\J	.
16C#\JJ	.	.	.
16D\LL	.	4b-\]	.
16F\	.	.	.
16B-\	8ff/	.	.
16d\JJ	.	.	.
=47	=47	=47	=47
16F#\LL	8r	8cc\	.
16G\	.	.	.
16A\	8ee-/L	8r	.
16G\JJ	.	.	.
16D#\LL	8gg/	4.b-\	.
16En\	.	.	.
16Fn\	8dd-/J	.	.
16E\JJ	.	.	.
16F\LL	4cc/	.	.
16A\	.	.	.
16c\	.	8a\	.
16f\JJ	.	.	.
=48	=48	=48	=48
16Bn\LL	8fff/	8r	.
16c\	.	.	.
16dn\	8r	8aa\L	.
16c\JJ	.	.	.
16G#\LL	4.eee-/	8ccc\	.
16A\	.	.	.
16B-\	.	8gg-\J	.
16A\JJ	.	.	.
16B-\LL	.	4ff\	.
16A\	.	.	.
16Gn\	8ddd/	.	.
16F\JJ	.	.	.
=49	=49	=49	=49
16E-\LL	8aaa-/	8r	.
16F\	.	.	.
16G\	8r	8bb-\L	.
16E-\JJ	.	.	.
16D/LL	4.ggg/	8eeen\	.
16C#/	.	.	.
16BB#/	.	[8bb-\J	.
16C#/JJ	.	.	.
16D\LL	.	8bb-\L]	.
16En\	.	.	.
16F\	[8fff/	8ddd\J	.
16F#\JJ	.	.	.
=50	=50	=50	=50
16G\LL	8fff/L]	8bbn\L	.
16A\	.	.	.
16B-\	[8fff/J	8gg\J	.
16Bn\JJ	.	.	.
16C\LL	8fff/L]	8ccc\L	.
16En\	.	.	.
16G\	8eeen/J	8gg\J	.
16c\JJ	.	.	.
16F\LL	[4eee-/	8ccc\L	.
16G\	.	.	.
16A-\	.	[8ff\J	.
16An\JJ	.	.	.
=51	=51	=51	=51
*^	*	*	*
2r	16BB-\LL	8eee-/L]	8ff\L]	.
.	16D\	.	.	.
.	16F\	8ddd/J	[8bb-\J	.
.	16B-\JJ	.	.	.
.	16En\LL	8ddd-/L	8bb-\L]	.
.	16G\	.	.	.
.	16B-\	[8dd-/J	8b-\J	.
.	16en\JJ	.	.	.
8B-/	16G\LL	16dd-/LL]	4r	.
.	16E\	16gg/	.	.
8r	16G\	16bb-/	.	.
.	16E\JJ	16ddd-/JJ	.	.
*v	*v	*	*	*
=52	=52	=52	=52
4r	8ddd-/L	2een\	.
.	16ccc/L	.	.
.	16bb-/JJ	.	.
4r	16aa/LL	.	.
.	16bb-/	.	.
.	16ccc/	.	.
.	16bb-/JJ	.	.
.	.	(ddq\LL	.
.	.	eeq\JJ)	.
8FF/	16aa/LL	4ff\	.
.	16gg/	.	.
8r	16aa/	.	.
.	16bb-/JJ	.	.
=53	=53	=53	=53
2A\	16ccc/LL	4r	.
.	16bb-/	.	.
.	16aa/	.	.
.	16gg/JJ	.	.
.	16ff/LL	4r	.
.	16gg/	.	.
.	16ff/	.	.
.	16ee-/JJ	.	.
(Gq/LL	.	.	.
Aq/JJ)	.	.	.
4B-\	16ddn/LL	8d\	.
.	16ccc#/	.	.
.	16dddn/	8r	.
.	16ccc#/JJ	.	.
=54	=54	=54	=54
4r	8eee-/L	2ff#\	.
.	16ddd/L	.	.
.	16cccn/JJ	.	.
4r	16bbn/LL	.	.
.	16ccc/	.	.
.	16ddd/	.	.
.	16ccc/JJ	.	.
.	.	(ee-q\LL	.
.	.	ff#q\JJ)	.
8GG/	16bb/LL	4gg\	.
.	16aa/	.	.
8r	16bb/	.	.
.	16ccc/JJ	.	.
=55	=55	=55	=55
2Bn\	16ddd/LL	4r	.
.	16ccc/	.	.
.	16bbn/	.	.
.	16aa-/JJ	.	.
.	16gg/LL	4r	.
.	16aa-/	.	.
.	16gg/	.	.
.	16ffn/JJ	.	.
(Aq/LL	.	.	.
Bq/JJ)	.	.	.
8c\L	4ee-/	16g\LL	.
.	.	16bn\	.
8AA-\J	.	16cc\	.
.	.	16dd-\JJ	.
=56	=56	=56	=56
2c\	4r	16ee-\LL	.
.	.	16dd-\	.
.	.	16cc\	.
.	.	16b-\JJ	.
.	4.ee-/	16a-\LL	.
.	.	16b-\	.
.	.	16a-\	.
.	.	16g-\JJ	.
(B-q/LL	.	.	.
cq/JJ)	.	.	.
4d-\	.	4f\	.
.	16dd-/LL	.	.
.	16ee-/JJ	.	.
=57	=57	=57	=57
8r	16ff/LL	4r	.
.	16gg-/	.	.
16d-\LL	16ff/	.	.
16c\JJ	16ee-/JJ	.	.
16B-\LL	16dd-/LL	4r	.
16A-\	16cc/	.	.
16G-\	16b-/	.	.
16F\JJ	16a-/JJ	.	.
4B-\	[4dd-/	16d-\LL	.
.	.	16e-\	.
.	.	16en\	.
.	.	16f\JJ	.
=58	=58	=58	=58
8r	16dd-/LL]	4g-\	.
.	16ee-/	.	.
16B-\LL	16dd-/	.	.
16A-\JJ	16cc/JJ	.	.
16G-\LL	16b-/LL	4r	.
16F\	16a-/	.	.
16E-\	16g-/	.	.
16D-\JJ	16f/JJ	.	.
4G-\	[4b-/	16B-\LL	.
.	.	16c\	.
.	.	16d-\	.
.	.	16dn\JJ	.
=59	=59	=59	=59
8r	4.b-/]	16e-\LL	.
.	.	16d\	.
16G-\LL	.	16e-\	.
16F\JJ	.	16f\JJ	.
16E-\LL	.	8g-\L	.
16F\	.	.	.
16E-\	8b-/	8gn\J	.
16D-\JJ	.	.	.
16C/LL	8cc/L	8a-\	.
16D-/	.	.	.
16C/	8dd-/J	8r	.
16BB-/JJ	.	.	.
*	*v	*v	*
=60	=60	=60
*k[b-e-a-d-]	*k[b-e-a-d-]	*k[b-e-a-d-]
16AA-/LL	4.g-\ 4.ee-\	.
16BB-/	.	.
16C/	.	.
16D-/JJ	.	.
16Dn\LL	.	.
16E-\	.	.
16F\	8g-\ 8ee-\	.
16E-\JJ	.	.
16D-\LL	8g-\ (8ee-\L	.
16E-\	.	.
16F\	8f\ 8dd-\J	.
16G-\JJ	.	.
=61	=61	=61
*	*^	*
16Gn\LL	8cc/L	8e-\L	.
16A-\	.	.	.
16B-\	8dd-/J	8d-\J	.
16A-\JJ	.	.	.
16G-\LL	8e-/L	8c\L	.
16F\	.	.	.
16E-\	16f/L	8d-\J	.
16D-\JJ	16gn/JJ	.	.
8AA-/	16a-/LL)	8c\L	.
.	16b-/	.	.
8r	16cc/	8e-\J	.
.	16dd-/JJ	.	.
*	*v	*v	*
=62	=62	=62
4.GG-/ 4.E-/	16ddn\LL	.
.	16ee-\	.
.	16ff\	.
.	16ee-\JJ	.
.	16dd-\LL	.
.	16cc\	.
8GG-/ 8E-/	16b-\	.
.	16a-\JJ	.
8GG-/ (8E-/L	16dd-\LL	.
.	16ee-\	.
8FF/ 8D-/J	16ff\	.
.	16gg-\JJ	.
=63	=63	=63
*	*^	*
8EE-/ 8C/L	16ggn\LL	2r	.
.	16aa-\	.	.
8DD-/ 8D-/J	16bb-\	.	.
.	16aa-\JJ	.	.
8C\ 8E-\L	16gg-\LL	.	.
.	16ff\	.	.
8D-\ 8F\J)	16ee-\	.	.
.	16dd-\JJ	.	.
4r	16c\LL	8a-/	.
.	16d-\	.	.
.	16c\	8r	.
.	16B-\JJ	.	.
=64	=64	=64	=64
4r	4.g-/	16A-\LL	.
.	.	16B-\	.
.	.	16c\	.
.	.	16d-\JJ	.
4r	.	16dn\LL	.
.	.	16e-\	.
.	8f/	16c\	.
.	.	16d-\JJ	.
8DD-/ 8D-/	4b-/	16en\LL	.
.	.	16f\	.
8r	.	16g-\	.
.	.	16f\JJ	.
=65	=65	=65	=65
4.CC/ 4.C/	4r	16dn\LL	.
.	.	16e-\	.
.	.	16gn\	.
.	.	16a-\JJ	.
.	4r	16f#\LL	.
.	.	16g\	.
8BBB-/ 8BB-/	.	16a-\	.
.	.	16g\JJ	.
4EE-/ 4E-/	8dd-/	16a-\LL	.
.	.	16b-\	.
.	8r	16cc\	.
.	.	16b-\JJ	.
=66	=66	=66	=66
4r	4.cc/	16g\LL	.
.	.	16a-\	.
.	.	16b-\	.
.	.	16a-\JJ	.
4r	.	16f#\LL	.
.	.	16g\	.
.	8b-/	16a-\	.
.	.	16g\JJ	.
8GG/ 8G/	4ee-/	16an\LL	.
.	.	16b-\	.
8r	.	16cc\	.
.	.	16b-\JJ	.
=67	=67	=67	=67
4.FF/ 4.F/	4r	16a-\LL	.
.	.	16b-\	.
.	.	16cc\	.
.	.	16dd-\JJ	.
.	4r	16cc\LL	.
.	.	16dd-\	.
8EE-/ 8E-/	.	16bn\	.
.	.	16cc\JJ	.
4AA-/ 4A-/	8ff/	16b\LL	.
.	.	16cc\	.
.	8r	16dd-\	.
.	.	16cc\JJ	.
=68	=68	=68	=68
4r	8ff/L	16an\LL	.
.	.	16b-\	.
.	8ee-/J	16cc\	.
.	.	16b-\JJ	.
8GG/ 8G/	4r	16dn\LL	.
.	.	16e-\	.
8r	.	16f\	.
.	.	16e-\JJ	.
8GG'/ 8G'/L	8dd-/	16g\LL	.
.	.	16a-\	.
8FF'/ 8F'/J	8r	16b-\	.
.	.	16a-\JJ	.
=69	=69	=69	=69
4r	8dd-/L	16g\LL	.
.	.	16a-\	.
.	8cc/J	16b-\	.
.	.	16a-\JJ	.
8E-\ 8e-\	8r	16g\LL	.
.	.	16a-\	.
8r	8dd-/	16b-\	.
.	.	16bn\JJ	.
8e-\L	[4ggg/	16cc\LL	.
.	.	16b-\	.
8d-\J	.	16an\	.
.	.	16b-\JJ	.
=70	=70	=70	=70
8d-\L	4ggg/]	16b-\LL	.
.	.	16a-\	.
8c\J	.	16e-\	.
.	.	16a-\JJ	.
8r	4aaa-/	4r	.
8C/	.	.	.
4c\	8r	8r	.
.	16aaa-/LL	8g\	.
.	16ggg/JJ	.	.
=71	=71	=71	=71
4r	16fff/LL	4a-\	.
.	16eee-/	.	.
.	16ddd-/	.	.
.	16ccc/JJ	.	.
8r	4fff/	4r	.
8AA-/	.	.	.
4A-\	8r	8r	.
.	16fff/LL	8en\	.
.	16eee-/JJ	.	.
=72	=72	=72	=72
4r	16ddd-/LL	4f\	.
.	16ccc/	.	.
.	16bb-/	.	.
.	16aa-/JJ	.	.
8r	4ddd-/	4r	.
8FF'/	.	.	.
8F'\L	8r	8r	.
8An'\J	16ddd-/LL	8ee-\	.
.	16ccc/JJ	.	.
=73	=73	=73	=73
8B-\L	16bb-/LL	8dd-\L	.
.	16ccc/	.	.
8dn\J	16bb-/	8b-\J	.
.	16aa-/JJ	.	.
8e-\	16gg/LL	8b-\	.
.	16aa-/	.	.
8r	16gg/	8r	.
.	16ff/JJ	.	.
[4B-\ [4d-\	16ee-/LL	4r	.
.	16ff/	.	.
.	16gg/	.	.
.	16aa-/JJ	.	.
*	*v	*v	*
=74	=74	=74
8B-\] 8d-\L]	16aan/LL	.
.	16bb-/	.
8B-\ 8d-\	16ccc/	.
.	16bb-/JJ	.
8B-\ (8d-\	16aa-/LL	.
.	16bb-/	.
8A-\ 8c\	16ccc/	.
.	16ddd-/JJ	.
8D-\ 8B-\	16dddn/LL	.
.	16eee-/	.
8C\ 8A-\J)	16fff/	.
.	16eee-/JJ	.
=75	=75	=75
*	*^	*
8BB-\ (8G\L	16ddd-/LL	4r	.
.	16ccc/	.	.
8C\ 8A-\J)	16bb-/	.	.
.	16aa-/JJ	.	.
16GG/LL	8bb-/	8dd-\	.
16AA-/	.	.	.
16GG/	8r	8r	.
16FF/JJ	.	.	.
16EE-/LL	4r	[4b-\ [4dd-\	.
16FF/	.	.	.
16GG/	.	.	.
16AA-/JJ	.	.	.
*	*v	*v	*
=76	=76	=76
16AAn/LL	8b-/] 8dd-/L]	.
16BB-/	.	.
16C/	8f/ 8dd-/J	.
16BB-/JJ	.	.
16GG/LL	(8f/ 8dd-/L	.
16AA-/	.	.
16BB-/	8e-/ 8cc/	.
16C/JJ	.	.
16D-\LL	8d-/ 8b-/	.
16E-\	.	.
16F\	8c/) 8a-/J	.
16E-\JJ	.	.
=77	=77	=77
16D-/LL	(8B-/ 8g/L	.
16C/	.	.
16BB-/	8c/) 8a-/J	.
16AA-/JJ	.	.
8G-\ (8e-\L	16an\LL	.
.	16b-\	.
8F\ 8d-\	16cc\	.
.	16dd-\JJ	.
8E-\ 8c\	16ee-\LL	.
.	16ff\	.
8D-\ 8B-\J)	16gg-\	.
.	16ff\JJ	.
=78	=78	=78
8C\ (8An\L	16ee-\LL	.
.	16dd-\	.
8D-\ 8B-\J)	16cc\	.
.	16b-\JJ	.
16AAn/LL	(8g-/ 8ee-/L	.
16BB-/	.	.
16C/	8f/ 8dd-/	.
16D-/JJ	.	.
16E-\LL	8e-/ 8cc/	.
16F\	.	.
16G-\	8d-/) 8b-/J	.
16F\JJ	.	.
=79	=79	=79
16E-\LL	(8c/ 8an/L	.
16D-\	.	.
16C\	8d-/) 8b-/J	.
16BB-\JJ	.	.
*	*clefF4	*clefF4
(8AA-/L	16Dn\LL	.
.	16E-\	.
8GGn/	16F\	.
.	16Gn\JJ	.
8FF/	16A-\LL	.
.	16B-\	.
8EE-/J)	16c-\	.
.	16B-\JJ	.
=80	=80	=80
(8DDn/L	16A-\LL	.
.	16G\	.
8EE-/J)	16F\	.
.	16E-\JJ	.
(8BB-/L	16En\LL	.
.	16F\	.
8AA-/	16G\	.
.	16A-\JJ	.
8GG/	16B-\LL	.
.	16cn\	.
8FF/J)	16d-\	.
.	16c\JJ	.
=81	=81	=81
(8EEn/L	16B-\LL	.
.	16A-\	.
8FF/J)	16G\	.
.	16F\JJ	.
*	*clefG2	*clefG2
16F\LL	8cc-\ (8ee-\L	.
16G-\	.	.
16A-\	8b-\ 8dd-\	.
16B-\JJ	.	.
16c-\LL	8a-\ 8cc-\	.
16d-\	.	.
16e-\	8g-\ 8b-\J)	.
16d-\JJ	.	.
=82	=82	=82
16c-\LL	(8f/ 8a-/L	.
16B-\	.	.
16A-\	8g-/) 8b-/J	.
16G-\JJ	.	.
16GGn/LL	8ff-\ (8ddd-\L	.
16AA-/	.	.
16BB-/	8ee-\ 8ccc-\	.
16C-/JJ	.	.
16D-\LL	8dd-\ 8bb-\	.
16E-\	.	.
16F-\	8cc-\ 8aa-\J	.
16E-\JJ	.	.
=83	=83	=83
16D-/LL	8b-\ 8gg\L	.
16C-/	.	.
16BB-/	[8cc-\ [8aa-\J	.
16AA-/JJ	.	.
16GG-/LL	8cc-\] 8aa-\L]	.
16FF-/	.	.
16EE-/	[8aa-\ [8ccc-\J	.
16DDn/JJ	.	.
16EE-/LL	8aa-\] 8ccc-\L]	.
16GGn/	.	.
16BB-/	8gg\ 8bb-\J)	.
16E-/JJ	.	.
=84	=84	=84
2GG/ 2G/	4.dd-\ 4.ff-\	f
.	[8dd-\ [8ff-\	.
(Fq/LL	.	.
Gq/JJ)	.	.
[4AA-/ [4A-/	8dd-\] 8ff-\L]	.
.	8cc-\ 8ee-\J	.
=85	=85	=85
4AA-/] 4A-/]	8b-\ (8dd-\L	.
.	8a-\ 8cc-\	.
4EE-/ 4E-/	8g\ 8b-\	.
.	8a-\ 8cc-\	.
4DD-/ 4D-/	8b-\ 8dd-\	.
.	[8cc-\ [8ee-\J)	.
=86	=86	=86
2FF/ 2F/	8cc-\] 8ee-\L]	f
.	8cc-\ 8ee-\J	.
.	4.cc-\ 4.ee-\	.
(E-q/LL	.	.
Fq/JJ)	.	.
4GG-/ 4G-/	.	.
.	[8b-\ [8dd-\	.
=87	=87	=87
4DD-/ 4D-/	8b-\] 8dd-\L]	.
.	8a-\ (8cc-\	.
4EE-/ 4E-/	8g-\ 8b-\	.
.	8f\ 8a-\	.
[4CC-/ [4C-/	8g-\ 8b-\	.
.	8a-\ 8cc-\J)	.
=88	=88	=88
*	*^	*
(8CC-/] 8C-/L]	8dd-/	(8g-\L	>
8BBB-/ 8BB-/	4ee-/	8g-\	.
8AAA-/ 8AA-/	.	8f\	.
8BBB-/ 8BB-/	4dd-/	8g-\J	.
8CC-/ 8C-/	.	16a-\LL	.
.	.	16g-\	.
8DD-/) 8D-/J	8dd-/	16f\	.
.	.	16a-\JJ)	.
=89	=89	=89	=89
4GGG-/ 4GG-/	16dd-/LL	16b-\	.
.	16B-/	8.r	p
.	16d-/	.	.
.	16g-/JJ	.	.
4r	8b-/L	16r	.
.	.	16g-\LL	.
.	8cc-/J	16f\	.
.	.	16e-\JJ	.
16r	4dd-/	8f\L	.
16D-\LL	.	.	.
16E-\	.	16g-\L	.
16F\JJ	.	16a-\JJ	.
*	*v	*v	*
=90	=90	=90
*k[b-e-a-d-g-c-]	*k[b-e-a-d-g-c-]	*k[b-e-a-d-g-c-]
*	*^	*
16G-\LL	4r	4b-\	.
16BB-\	.	.	.
16D-\	.	.	.
16G-\JJ	.	.	.
8B-'\L	16r	4r	.
.	16gg-/LL	.	.
8c-'\J	16ff/	.	.
.	16ee-/JJ	.	.
4d-\	8ff/L	4r	.
.	16gg-/L	.	.
.	[16aa-/JJ	.	.
=91	=91	=91	=91
4r	4aa-/_	16ff\LL	.
.	.	16f\	.
.	.	16a-\	.
.	.	16dd-\JJ	.
4r	(16aa-/LL]	8ff'\L	.
.	16fff/	.	.
.	16eee-/)	8gg-'\J	.
.	16ddd-/JJ	.	.
16r	8cccn/L	4aa-\	.
16A-\LL	.	.	.
16B-\	16ddd-/L	.	.
16cn\JJ	16eee-/JJ	.	.
=92	=92	=92	=92
16d-\LL	4aa-/	[4ff\	.
16FF/	.	.	.
16AA-/	.	.	.
16D-/JJ	.	.	.
8F'\L	4r	16ff\LL]	.
.	.	16ff\	.
8G-'\J	.	16ee-\	.
.	.	16dd-\JJ	.
[4A-\	4r	16ccn\LL	.
.	.	16b-\	.
.	.	16a-\	.
.	.	16g-\JJ	.
=93	=93	=93	=93
16A-\LL]	8ff'/L	8f\	f
16f\	.	.	.
16e-\	8gg-'/J	8r	.
16d-\JJ	.	.	.
16cn\LL	[4aa-/	16r	.
16B-\	.	16a-\LL	.
16A-\	.	16b-\	.
16G-\JJ	.	16ccn\JJ	.
8F\L	16aa-/LL]	8ddn\L	.
.	16ff/	.	.
8A-\J	16ee-/	[8b-\J	.
.	16dd/JJ	.	.
=94	=94	=94	=94
16G-\	4ee-/	16b-\LL]	.
16r	.	16G-\	.
8r	.	16B-\	.
.	.	16e-\JJ	.
4r	16r	8g-'\L	.
.	16ggg-/LL	.	.
.	16fff/	8a-'\J	.
.	16eee-/JJ	.	.
16r	16dddn/LL	4b-\	.
16dn\LL	16ccc-/	.	.
16e-\	16bb-/	.	.
16f\JJ	16aa-/JJ	.	.
=95	=95	=95	=95
16e-\LL	4gg-/	8b-\L	.
16GG-/	.	.	.
16BB-/	.	[8g-\J	.
16E-/JJ	.	.	.
8G-'\L	4r	16g-\LL]	.
.	.	16gg-\	.
8A-'\J	.	16ff\	.
.	.	16ee-\JJ	.
[4B-\	4r	16ddn\LL	.
.	.	16cc-\	.
.	.	16b-\	.
.	.	16a-\JJ	.
=96	=96	=96	=96
16B-\LL]	8gg-'/L	4g-\	.
16G-\	.	.	.
16F\	8aa-/J	.	.
16E-\JJ	.	.	.
16Dn/LL	[4bb-/	4r	.
16C-/	.	.	.
16BB-/	.	.	.
16AA-/JJ	.	.	.
8GGn'/L	16bb-/LL]	4r	.
.	16ggn/	.	.
8AA-'/J	16ff/	.	.
.	16ee-/JJ	.	.
=97	=97	=97	=97
8BB-'/L	16eee-/LL	2.r	.
.	16ccc-/	.	.
8C-'/J	16bb-/	.	.
.	16aa-/JJ	.	.
[4c-\	16aaa-/LL	.	.
.	16fff/	.	.
.	16eee-/	.	.
.	16dddn/JJ	.	.
16c-\LL]	[4aaa-/	.	.
16A-\	.	.	.
16G-\	.	.	.
16F\JJ	.	.	.
=98	=98	=98	=98
4E-\	16aaa-/LL]	2B-\	.
.	16aa-/	.	.
.	16gg-/	.	.
.	16ff/JJ	.	.
4Dn\	16aa-/LL	.	.
.	16ff/	.	.
.	16ee-/	.	.
.	16ddn/JJ	.	.
4r	16ff/LL	[4ddn\	.
.	16b-/	.	.
.	16an/	.	.
.	16b-/JJ	.	.
=99	=99	=99	=99
2.r	16bb-/LL	2.ddn\]	.
.	16ff/	.	.
.	16een/	.	.
.	16ff/JJ	.	.
.	16fff/LL	.	.
.	16bb-/	.	.
.	16aan/	.	.
.	16bb-/JJ	.	.
.	16bbb-/LL	.	.
.	16aaa-/	.	.
.	16ggg-/	.	.
.	(ccnq\	.	.
.	16fff/JJ	.	.
=100	=100	=100	=100
4r	4ggg-/	2ee-\	.
4C-/	4r	.	.
[4c-/	4r	4r	.
=101	=101	=101	=101
4c-/]	4r	8g-'\ 8ee-'\L	.
.	.	8f'\ 8dd-'\	.
2r	8dddn/	8e-'\ 8cc-'\	.
.	8r	8d-'\ 8b-'\	.
.	[4eee-/	8c-'\ 8a-'\	.
.	.	8g-'\J	.
=102	=102	=102	=102
4r	4eee-/]	2e-\ 2cc-\	.
4AA-/	2r	.	.
[4A-/	.	4r	.
=103	=103	=103	=103
4A-/]	4r	8e-'\ 8cc-'\L	.
.	.	8d-'\ 8b-'\	.
2r	8bb-/	8c-'\ 8a-'\	.
.	8r	8B-'\ 8g-'\	.
.	[4ccc-/	8A-'\ 8f'\	.
.	.	8G-'\ 8e-'\J	.
=104	=104	=104	=104
4r	4ccc-/]	2c-\ 2a-\	.
4FF/	2r	.	.
[4F\	.	4r	.
=105	=105	=105	=105
4F\]	4r	8c-'\ 8a-'\L	.
.	.	8B-'\ 8g-'\	.
2r	4bb-/	8A-'\ 8f'\	.
.	.	8B-'\ 8g-'\	.
.	[4ccc-/	8A-'\ 8f'\	.
.	.	8G-'\ 8e-'\J	.
=106	=106	=106	=106
8F\L	4ccc-/]	8dn\L	.
8G-\J	.	8e-\J	.
8F\L	4bb-/	8d\L	.
8E-\J	.	8cn\J	.
8Dn\L	[4aa-/	8B-\L	.
8E-\J	.	8c\J	.
=107	=107	=107	=107
8F\L	2aa-/]	8dn\L	.
8G-\J	.	8e-\J	.
8Gn\L	.	8en\L	.
8A-\J	.	8f\J	.
8B-\L	[4aaa-/	8g-\L	.
8A-\J	.	8f\J	.
=108	=108	=108	=108
8G-\L	8aaa-/]	8e-\L	.
8A-\	8r	8f\	.
8B-\	8ggg-/	8g-\	.
8c-\J	8r	8a-\J	.
8f\L	8fff/	8an\L	.
8g-\J	8r	8b-\J	.
=109	=109	=109	=109
8a-\L	8eee-/	8cc-\L	.
8g-\J	8r	8b-\J	.
8c-\L	8dddn/	8a-\L	.
8B-\J	8r	8g-\	.
[4BBB-/ [4BB-/	8a-/L	8f\	.
.	8g-/J	8e-\J	.
*	*v	*v	*
=110	=110	=110
2BBB-/] 2BB-/]	8A-/ 8f/L	.
.	8B-/ 8g-/	.
.	8A-/ 8f/	.
.	8G-/ 8e-/	.
[4AAA-/ [4AA-/	8F/ 8dn/	.
.	8G-/ 8e-/J	.
=111	=111	=111
*	*^	*
2AAA-/] 2AA-/]	8f/L	8dn\L	.
.	8g-/	8e-\	.
.	8a-/	8f\	.
.	8b-/	8g-\	.
[4AAA-/ [4AA-/	8ccn/	8e-\	.
.	8ddn/J	8f\J	.
=112	=112	=112	=112
8AAA-/] 8AA-/]	8ee-/L	8g-\L	.
8r	8ff/	8a-\	.
8GGG-/ 8GG-/	8gg-/	8b-\	.
8r	8ggn/	8cc-\	.
8FFF/ 8FF/	8aa-/	8ff\	.
8r	8bb-/J	8gg-\J	.
=113	=113	=113	=113
8EEE-/ 8EE-/	8ccc-/L	8aa-\L	.
8r	8bb-/	8gg-\	.
8DDDn/ 8DDn/	8aa-/	8cc-\	.
8r	8gg-/J	8b-\J	.
8EEE-/ 8EE-/	8ee-/	8a-\L	.
8B-\	8r	8g-\J	.
=114	=114	=114	=114
*^	*	*	*
2r	8A-\L	8dd-/	8f\L	.
.	8G-\	8r	8e-\	.
.	8F\	8ccn/	8d-\	.
.	8E-\J	8r	8cn\J	.
8B-/L	8D-\L	4r	[4e-\	.
8An/J	8Cn\J	.	.	.
*v	*v	*	*	*
*	*v	*v	*
=115	=115	=115
*k[b-e-a-d-g-]	*k[b-e-a-d-g-]	*k[b-e-a-d-g-]
*	*^	*
8BB-/ 8G-/L	2r	2e-/]	.
8AA-/ 8F/	.	.	.
8GG-/ 8E-/	.	.	.
8FF/ 8D-/J	.	.	.
[4EE-/ [4E-/	[4aan/	8dd-\L	f
.	.	8ccn\J	.
=116	=116	=116	=116
2EE-/] 2E-/]	2.aa/]	(8ff\L	.
.	.	8ee-\J)	.
.	.	8dd-\L	.
.	.	8cc\J	.
[4CCC/ [4CC/	.	8gg-\L	.
.	.	8cc\J	.
=117	=117	=117	=117
.	.	(ggnq/LL	.
.	.	aa-q/JJ)	.
2.CCC/] 2.CC/]	2.bb-/	2.ee-\	.
=118	=118	=118	=118
(BBB-q/LL	.	(dd-q/LL	.
CCq/JJ)	.	ee-q/JJ)	.
2BBB-/	8bb-/L	8dd-\L	.
.	8aa-/	8ccn\	.
.	8gg-/	8b-\	.
.	8ff/	8a-\	.
4r	8ee-/	8g-\	.
.	8dd-/J	8f\J	.
=119	=119	=119	=119
8BBB-/	2gg-/	8ee-\L	.
8CCC/ 8CC/L	.	8e-\	.
8DDD-/ 8DD-/	.	8f\	.
8EEE-/ 8EE-/	.	8g-\	.
8FFF/ 8FF/	4r	8a-\	.
8GGG-/ 8GG-/J	.	[8b-\J	.
=120	=120	=120	=120
2DDD-/ 2DD-/	8gg-/L	8b-\L]	.
.	8ff/	8a-\	.
.	8ee-/	8g-\	.
.	8dd-/J	8f\J	.
[4CCC/ [4CC/	16ggn/LL	4een\	.
.	16ddd-/	.	.
.	16bb-/	.	.
.	16gg/JJ	.	.
=121	=121	=121	=121
2CCC/] 2CC/]	16een/LL	4r	.
.	16bb-/	.	.
.	16ggn/	.	.
.	16ee/JJ	.	.
.	16dd-/LL	4r	.
.	16gg/	.	.
.	16ee/	.	.
.	16dd-/JJ	.	.
[4EEn/ [4En/	16ccn/LL	[4b-\	.
.	16gg/	.	.
.	16ee/	.	.
.	16cc/JJ	.	.
=122	=122	=122	=122
*^	*	*	*
2E/]	2.EE\]	16dd-/LL	2b-\]	.
.	.	16bb-/	.	.
.	.	16ggn/	.	.
.	.	16een/JJ	.	.
.	.	4cc/	.	.
[4Gn/	.	4r	4r	.
*v	*v	*	*	*
*	*v	*v	*
=123	=123	=123
2Gn/]	2bb-/	.
[4FFF/	[4B-'/ [4gn'/	f
=124	=124	=124
*	*^	*
2FFF/]	2B-/] 2g/]	2r	.
[4AAn\	4f/	8c\L	.
.	.	[8ee-\J	.
*	*v	*v	*
=125	=125	=125
*^	*	*
2r	2.AA\]	2ee-\]	.
[4c/	.	4r	.
=126	=126	=126	=126
*	*	*^	*
4r	2c/]	2eee-/	2r	.
4r	.	.	.	.
[4BBB-/	4r	[4cc/	[4e-\	.
*v	*v	*	*	*
=127	=127	=127	=127
2BBB-/]	2cc/]	4e-\]	.
.	.	4en\	.
[4D-\	4b-/	8f\L	.
.	.	[8dd-\J	.
=128	=128	=128	=128
*k[b-e-a-d-]	*k[b-e-a-d-]	*k[b-e-a-d-]	*k[b-e-a-d-]
2D-\]	4r	2dd-\]	.
.	4r	.	.
(Cq/LL	.	.	.
D-q/JJ)	.	.	.
[4E-\	[4ddd-/	[4B-/	.
=129	=129	=129	=129
2E-\]	2ddd-/]	2B-/]	.
[4A-\	[4b-/	[4d-\	.
=130	=130	=130	=130
(8A-\L]	2.b-/_	2d-\]	>
8Gn\	.	.	.
8F\	.	.	.
8E-\	.	.	.
8Dn\	.	[4gn\	.
8E-\J)	.	.	.
=131	=131	=131	=131
2.E-\	2b-/]	(8g\L]	.
.	.	8f\	.
.	.	8e-\	.
.	.	anq/LL	.
.	.	b-q/JJ	.
.	.	8d-\	.
.	[4ff/	8c\	.
.	.	8d-\J)	.
*	*v	*v	*
=132	=132	=132
*^	*	*
8Bn/L	2E-\	(8ff/L]	.
8c/	.	8ee-/	.
8B-/	.	8dd-/	.
8A-/	.	8cc/	.
8g/	[4E-\	8bn/	.
8a-/J	.	8cc/J	.
*v	*v	*	*
=133	=133	=133
*	*^	*
2E-\]	8an/ 8ee-/L	4.r	.
.	8b-/ 8dd-/	.	.
.	8e-/ 8cc/	.	.
.	8b-/	4d-\	.
D-q/LL	.	.	.
E-q/JJ	.	.	.
8F\L	8a-/	.	.
8G\J	8b-/J	[8d-\	.
=134	=134	=134	=134
16A-\LL	4e-/)	8d-\L]	.
16C\	.	.	.
16E-\	.	8c\J	.
16A-\JJ	.	.	.
8c'\L	16r	4r	.
.	16aa-/LL	.	.
8d-'\J	16gg/	.	.
.	16ff/JJ	.	.
4e-\	8ee-/L	16r	.
.	.	16b-\LL	.
.	8gg/J	16cc\	.
.	.	16dd-\JJ	.
=135	=135	=135	=135
4r	8aa-/	16cc\LL	.
.	.	16c\	.
.	8r	16e-\	.
.	.	16a-\JJ	.
4r	16r	8cc\L	.
.	16ccc/LL	.	.
.	16bb-/	8dd-\J	.
.	16aa-/JJ	.	.
16r	4gg/	[4ee-\	.
16B-\LL	.	.	.
16c\	.	.	.
16d-\JJ	.	.	.
=136	=136	=136	=136
*^	*	*	*
2r	4c\	16aa-/LL	8ee-\]	<
.	.	16cc/	.	.
.	.	16ee-/	8r	.
.	.	16aa-/JJ	.	.
.	16r	8ccc'/L	4r	.
.	16A-\LL	.	.	.
.	16G\	8ddd-'/J	.	.
.	16F\JJ	.	.	.
16r	4E-\	4eee-/	4r	.
16G/LL	.	.	.	.
16A-/	.	.	.	.
16B-/JJ	.	.	.	.
*v	*v	*	*	*
=137	=137	=137	=137
4r	16r	8c'\L	.
.	16cc/LL	.	.
.	16b-/	8d-\J	.
.	16a-/JJ	.	.
16r	4g/	[4e-\	.
16F\LL	.	.	.
16E-\	.	.	.
16D-\JJ	.	.	.
8C\L	[4a-/	16e-\LL]	.
.	.	16c\	.
16Dn\L	.	16B-\	.
16En\JJ	.	16A-\JJ	.
=138	=138	=138	=138
4F\	16a-/LL]	8c\	.
.	16a-/	.	.
.	16cc/	8r	.
.	16ff/JJ	.	.
4r	8aa-'/L	16r	.
.	.	16ff\LL	.
.	8bb-'/J	16ee-\	.
.	.	16dd-\JJ	.
16r	[4ccc/	[4cc\	.
16En\LL	.	.	.
16F\	.	.	.
16G\JJ	.	.	.
=139	=139	=139	=139
8A-'\L	4ccc/]	16cc\LL]	.
.	.	16a-\	.
8B-'\J	.	16g\	.
.	.	16f\JJ	.
[4c\	16r	[4a-\	.
.	16aa-/LL	.	.
.	16gg/	.	.
.	16ff/JJ	.	.
16c\LL]	8een'/L	16a-\LL]	.
16A-\	.	16cc\	.
16G\	8ff'/J	16b-\	.
16F\JJ	.	16a-\JJ	.
=140	=140	=140	=140
16c\LL	8aa-'/L	4r	.
16f\	.	.	.
16en\	8bb-'/J	.	.
16d-\JJ	.	.	.
16c\LL	[4ccc/	16r	.
16B-\	.	16cc\LL	.
16A-\	.	16ddn\	.
16G\JJ	.	16een\JJ	.
8F\	16ccc/LL]	4ff\	.
.	16aa-/	.	.
8r	16gg/	.	.
.	16ff/JJ	.	.
=141	=141	=141	=141
16c\LL	8aan'/L	4r	.
16e-\	.	.	.
16d-\	8bb-/J	.	.
16c\JJ	.	.	.
16B-\LL	[4ccc/	16r	.
16An\	.	16cc\LL	.
16G\	.	16ddn\	.
16F\JJ	.	16een\JJ	.
4E-\	16ccc/LL]	4ff\	.
.	16aa/	.	.
.	16gg/	.	.
.	16ff/JJ	.	.
=142	=142	=142	=142
16D-\LL	8bb-'/L	4r	.
16d-\	.	.	.
16c\	8ccc'/J	.	.
16B-\JJ	.	.	.
16An\LL	[4ddd-/	16r	.
16G\	.	16ff\LL	.
16F\	.	16gg\	.
16E-\JJ	.	16aan\JJ	.
4D-\	16ddd-/LL]	4bb-\	.
.	16bb-/	.	.
.	16gg-/	.	.
.	16ff/JJ	.	.
=143	=143	=143	=143
16C\LL	4aan/	8ee-'\L	.
16c\	.	.	.
16B-\	.	8ff'\J	.
16An\JJ	.	.	.
16G-\LL	16r	[4gg-\	.
16F\	16aa/LL	.	.
16E-\	16ccc/	.	.
16D-\JJ	16ddd-/JJ	.	.
4C\	4eee-/	16gg-\LL]	.
.	.	16ee-\	.
.	.	16dd-\	.
.	.	16cc\JJ	.
=144	=144	=144	=144
8DDn'/ 8Dn'/L	4r	16ff\LL	.
.	.	16bb-\	.
8EE-'/ 8E-'/J	.	16aan\	.
.	.	16gg\JJ	.
[4FF/ [4F/	4r	16ff\LL	.
.	.	16ee-\	.
.	.	16ddn\	.
.	.	16cc\JJ	.
16FF/] 16F/LL]	16dd/LL	[4b-\	.
16D/	16ff/	.	.
16C/	16gg-/	.	.
16BB-/JJ	16aa/JJ	.	.
=145	=145	=145	=145
8EE-'/ 8E-'/L	16ggn/LL	8b-\]	.
.	16bb-/	.	.
8FF'/ 8F'/J	16aa-/	8r	.
.	16gg/JJ	.	.
[4GG/ [4G/	16ff/LL	8r	.
.	16ee-/	.	.
.	16ddn/	[8e-\	.
.	16cc/JJ	.	.
16GG/] 16G/LL]	4b-/	16e-\LL]	.
16E-/	.	16g\	.
16C-/	.	16a-\	.
16BB-/JJ	.	16b-\JJ	.
=146	=146	=146	=146
8GG'\ 8G'\L	4r	16e-\LL	.
.	.	16ee-\	.
8AA-'\ 8A-'\J	.	16dd-\	.
.	.	16cc\JJ	.
[4BB-\ [4B-\	4r	16b-\LL	.
.	.	16a-\	.
.	.	16g\	.
.	.	16f\JJ	.
16BB-\] 16B-\LL]	16g/LL	[4e-\	.
16G\	16b-/	.	.
16F\	16cc/	.	.
16E-\JJ	16dd-/JJ	.	.
=147	=147	=147	=147
8AA-'\ 8A-'\L	16cc/LL	8e-\]	.
.	16ccc/	.	.
8BB-'\ 8B-'\J	16bb-/	8r	.
.	16aa-/JJ	.	.
[4C\ [4c\	16gg/LL	4r	.
.	16ff/	.	.
.	16ee-/	.	.
.	16dd-/JJ	.	.
16C\] 16c\LL]	[4cc/	8e-'\L	.
16A-\	.	.	.
16E-\	.	8g'\J	.
16C\JJ	.	.	.
=148	=148	=148	=148
16A-\LL	8cc/]	8a-'\L	.
16E-\	.	.	.
16C\	8gg/	8b-'\J	.
16AA-\JJ	.	.	.
16E-/LL	4.aa-/	8cc'\L	.
16C/	.	.	.
16AA-/	.	8dd-'\J	.
16EE-/JJ	.	.	.
16GG-/LL	.	4ee-\	.
16E-/	.	.	.
16C/	8ccc/	.	.
16GG-/JJ	.	.	.
*	*v	*v	*
=149	=149	=149
*k[b-e-a-d-g-]	*k[b-e-a-d-g-]	*k[b-e-a-d-g-]
*	*^	*
8FF'\ 8F'\L	4ddd-/	16dd-\LL	.
.	.	16ff\	.
8GG-'\ 8G-'\J	.	16ee-\	.
.	.	16dd-\JJ	.
[4AA-\ [4A-\	4r	16cc\LL	.
.	.	16b-\	.
.	.	16a-\	.
.	.	16g-\JJ	.
16AA-\] 16A-\LL]	8a-'/L	[4f\	.
16F\	.	.	.
16D-\	8cc'/J	.	.
16AA-\JJ	.	.	.
=150	=150	=150	=150
16F/LL	4.dd-/	8f\]	.
16D-/	.	.	.
16AA-/	.	8g-\	.
16FF/JJ	.	.	.
16D-/LL	.	4.a-\	.
16AA-/	.	.	.
16FF/	8een'/L	.	.
16DD-/JJ	.	.	.
16AA-/LL	8ff'/	.	.
16FF/	.	.	.
16EE-/	[8gg-/J	[8b-\	.
16DD-/JJ	.	.	.
=151	=151	=151	=151
8BB-'\ 8B-'\L	16gg-/LL]	4b-\]	.
.	16bb-/	.	.
8C-'\ 8c-'\J	16aa-/	.	.
.	16gg-/JJ	.	.
[4D-\ [4d-\	16ff/LL	4r	.
.	16ee-/	.	.
.	16dd-/	.	.
.	16cc-/JJ	.	.
16D-\] 16d-\LL]	[4b-/	8d-'\L	.
16B-\	.	.	.
16G-\	.	8f'\J	.
16D-\JJ	.	.	.
=152	=152	=152	=152
16B-\LL	8b-/]	4.g-\	.
16G-\	.	.	.
16D-\	8cc-/	.	.
16BB-\JJ	.	.	.
16G-\LL	4.dd-/	.	.
16D-\	.	.	.
16BB-\	.	8a-'\	.
16GG-\JJ	.	.	.
16D-/LL	.	8b-'\L	.
16BB-/	.	.	.
16AA-/	8bb-/	(8gg-\J	.
16GG-/JJ	.	.	.
=153	=153	=153	=153
8DDn'/ 8Dn'/L	8bbn/	16ff#\LL)	.
.	.	16ddn\	.
8EEn'/ 8En'/J	8r	16cc#\	.
.	.	16b-\JJ	.
[4FF#/ [4F#/	4r	16a#\LL	.
.	.	16gn\	.
.	.	16f#\	.
.	.	16en\JJ	.
16FF#/] 16F#/LL]	8f#'/L	4dn\	.
16D/	.	.	.
16BBn/	8a#'/J	.	.
16FF#/JJ	.	.	.
*	*v	*v	*
=154	=154	=154
*k[f#c#]	*k[f#c#]	*k[f#c#]
*	*^	*
16D/LL	4.b/	8d\	.
16BB/	.	.	.
16FF#/	.	8e\	.
16DD/JJ	.	.	.
16BB/LL	.	4.f#\	.
16FF#/	.	.	.
16DD/	8cc#'/L	.	.
16BBB/JJ	.	.	.
16FF#/LL	8dd'/	.	.
16DD/	.	.	.
16CC#/	8ee'/J	8cc#\	.
16BBB/JJ	.	.	.
=155	=155	=155	=155
8FFF#/	8ff#'/L	8dd\	.
8r	8aa#/J	16cc#\LL	.
.	.	16b\JJ	.
4r	4.bb/	16dd\LL	.
.	.	16b\	.
.	.	16g\	.
.	.	16f#\JJ	.
4r	.	16b\LL	.
.	.	16f#\	.
.	8ccc#/	16e\	.
.	.	16d\JJ	.
=156	=156	=156	=156
2.r	8ddd'/L	16f#\LL	.
.	.	16d\	.
.	8eee'/J	16c#\	.
.	.	16B\JJ	.
.	8fff#/	16d\LL	.
.	.	16B\	.
.	8r	16G\	.
.	.	16F#\JJ	.
.	8ff#/	16G\LL	.
.	.	16F#\	.
.	8r	16G#\	.
.	.	16A#\JJ	.
*clefG2	*	*	*
*	*v	*v	*
=157	=157	=157
16B/LL	4r	.
16c#/	.	.
16d/	.	.
16e/JJ	.	.
16f#/LL	4r	.
16g/	.	.
16f#/	.	.
16e#/JJ	.	.
16en/LL	(4ff#\	p
16d/	.	.
16c#/	.	.
16B/JJ	.	.
=158	=158	=158
16c#/LL	2ee\	.
16d/	.	.
16c#/	.	.
16B#/JJ	.	.
16Bn/LL	.	.
16A#/	.	.
16G#/	.	.
16F#/JJ	.	.
16G#/LL	4cc#\)	.
16A#/	.	.
16B/	.	.
16A#/JJ	.	.
=159	=159	=159
16B/LL	(2dd\	.
16c#/	.	.
16d/	.	.
16c#/JJ	.	.
16d/LL	.	.
16e/JJ	.	.
8r	.	.
4e/	[4cc#\	.
=160	=160	=160
(16B/LL	4cc#\]	.
16c#/	.	.
16d/	.	.
16e/JJ	.	.
16f#/LL	4b\)	.
16g/JJ)	.	.
8r	.	.
4g/	4b\	.
=161	=161	=161
16d/LL	(4b\	.
16e/	.	.
16f#/	.	.
16g#/JJ	.	.
16a#/LL	4f#/	.
16b/JJ	.	.
8r	.	.
4b/	4dd\	.
=162	=162	=162
2a#/	4cc#\	.
.	8f#/)	.
.	8r	.
*clefF4	*	*
(gq/LL	.	.
a#q/JJ)	.	.
8F#\	[4aa#\	.
8r	.	.
=163	=163	=163
4r	4aa#\]	.
*clefG2	*	*
.	ggq/LL	.
.	aaq/JJ	.
8B/	4bb\	p
8r	.	.
[4dd\	8r	.
.	16bb\LL	.
.	16aa\JJ	.
=164	=164	=164
*	*^	*
4dd\]	16gg\LL	2r	.
.	16ff#\	.	.
.	16ee\	.	.
.	16ff#\JJ	.	.
(cc#q/LL	.	.	.
ddq/JJ)	.	.	.
4ee\	16gg\LL	.	.
.	16aa\	.	.
.	16gg\	.	.
.	16ff#\JJ	.	.
*clefF4	*	*	*
8AA/	4g\	16ee/LL	.
.	.	16dd/	.
8r	.	16cc#/	.
.	.	16dd/JJ	.
=165	=165	=165	=165
2c#\	16ee\LL	2r	.
.	16dd\	.	.
.	16cc#\	.	.
.	16b\JJ	.	.
.	16a/LL	.	.
.	16g#/	.	.
.	16a/	.	.
.	16gn/JJ	.	.
(Bq/LL	.	.	.
c#q/JJ)	.	.	.
4d\	16f#/LL	8r	.
.	16a/	.	.
.	16b/	8a\	.
.	16cc#/JJ	.	.
=166	=166	=166	=166
4r	16dd/LL	(8b\L	.
.	16ee/	.	.
.	16ff#/	8g\	.
.	16gg/JJ	.	.
4r	16aa/LL	8f#\	.
.	16bb/	.	.
.	16aa/	8e#\J)	.
.	16gg#/JJ	.	.
(4A\	16ggn/LL	[4f#\	.
.	16ff#/	.	.
.	16ee/	.	.
.	16dd#/JJ	.	.
=167	=167	=167	=167
2G\	16ee/LL	4f#\]	.
.	16ff#/	.	.
.	16ee/	.	.
.	16dd#/JJ	.	.
.	16ddn/LL	4en\	.
.	16cc#/	.	.
.	16b/	.	.
.	16a/JJ	.	.
4E\	16b/LL	4G\	.
.	16cc#/	.	.
.	16dd/	.	.
.	16cc#/JJ	.	.
*	*v	*v	*
=168	=168	=168
*^	*	*
4B/	2F#\	16dd\LL	.
.	.	16ee\	.
.	.	16ff#\	.
.	.	16ee\JJ	.
4A/	.	16ff#\LL	.
.	.	16gg\JJ	.
.	.	8r	.
4G/	([4E\)	4gg\	.
=169	=169	=169	=169
4G/)	(4E\]	16dd\LL	.
.	.	16ee\	.
.	.	16ff#\	.
.	.	16gg\JJ	.
4F#/	4D\)	16aa\LL	.
.	.	16bb\JJ	.
.	.	8r	.
[4G/	4D\	4bb\	.
=170	=170	=170	=170
(8G/L]	4D\	16ff#\LL	.
.	.	16gg\	.
8F#/	.	16aa\	.
.	.	16bb\JJ	.
8E/	4AA\	16ccc#\LL	.
.	.	16ddd\JJ	.
8F#/	.	8r	.
8G#/	4F#\	4ddd\	.
8A/J)	.	.	.
=171	=171	=171	=171
2Gn/	4E\	2ccc#\	.
.	4AA#\	.	.
.	.	(bbq/LL	.
.	.	ccc#q/JJ)	.
8F#/	4r	8a#/	.
8r	.	8r	.
*v	*v	*	*
=172	=172	=172
*	*^	*
4r	(4ff#/	2.a#\	p
4r	4ee/	.	.
16F#\LL	4cc#/)	.	.
16E\	.	.	.
16D\	.	.	.
16C#\JJ	.	.	.
*	*v	*v	*
=173	=173	=173
.	(gq\LL	.
.	a#q\JJ)	.
*	*^	*
16BB\LL	(4ee/	2b\	.
16C#\	.	.	.
16D\	.	.	.
16E\JJ	.	.	.
16F#\LL	[2dd/)	.	.
16G\	.	.	.
16F#\	.	.	.
16E#\JJ	.	.	.
16En\LL	.	4f#\	.
16D\	.	.	.
16C#\	.	.	.
16BB\JJ	.	.	.
=174	=174	=174	=174
16C#/LL	4dd/]	2e\	.
16D/	.	.	.
16C#/	.	.	.
16BB#/JJ	.	.	.
16BBn/LL	[2cc#/	.	.
16AA#/	.	.	.
16GG#/	.	.	.
16FF#/JJ	.	.	.
16GG#/LL	.	4c#\	.
16AA#/	.	.	.
16BB/	.	.	.
16AA#/JJ	.	.	.
=175	=175	=175	=175
16BB/LL	4cc#/]	4e\	.
16C#/	.	.	.
16D/	.	.	.
16C#/JJ	.	.	.
16D/LL	[2b/	4d\	.
16E/JJ	.	.	.
8r	.	.	.
4E\	.	[4c#\	.
=176	=176	=176	=176
16BB\LL	2b/]	4c#\]	.
16C#\	.	.	.
16D\	.	.	.
16E\JJ	.	.	.
16F#\LL	.	4B\	.
16G\JJ	.	.	.
8r	.	.	.
4G\	8e/L	4B\	.
.	8d/J	.	.
=177	=177	=177	=177
16D\LL	8c#/L	4B\	.
16E\	.	.	.
16F#\	8d/J	.	.
16G#\JJ	.	.	.
*	*v	*v	*
*	*clefF4	*clefF4
*	*^	*
16A#\LL	8c#/L	4F#\	.
16B\JJ	.	.	.
8r	8d/J	.	.
4B\	8e/L	4d\	<
.	8e#/J	.	.
=178	=178	=178	=178
2A#\	2f#/	4c#\	>
.	.	4F#\	.
*	*v	*v	*
*	*clefG2	*clefG2
*	*^	*
8FF#/L	4ff#/	4r	.
16GG#/L	.	.	.
16AA#/JJ	.	.	.
=179	=179	=179	=179
16BB/LL	2dd/	4r	.
16C#/	.	.	.
16D/	.	.	.
16E/JJ	.	.	.
8F#\	.	4r	.
8r	.	.	.
4B\	(8b/L	4d\	>
.	8e#/J	.	.
=180	=180	=180	=180
*^	*	*	*
2A#\	2r	2f#/)	4c#\	.
.	.	.	4F#\	.
4F#/	4FF#\	(8f#/L	4r	.
.	.	16g#/L	.	.
.	.	16a#/JJ	.	.
*	*	*v	*v	*
=181	=181	=181	=181
2D/	4r	16b\LL	.
.	.	16cc#\	.
.	.	16dd\	>
.	.	16ee\JJ	.
.	4r	16ff#\LL	.
.	.	16gg\JJ)	.
.	.	8r	.
8BB/L	8r	4gg\	p
8BB-/J	8CC#\	.	.
=182	=182	=182	=182
4AA/	16DD\LL	2ff#\	.
.	16EE\	.	.
.	16FF#\	.	.
.	16GG\JJ	.	.
4r	16AA\LL	.	.
.	16BBn\JJ	.	.
.	8r	.	.
4F#/	4BB\	4dd\	.
*v	*v	*	*
=183	=183	=183
*	*^	*
(16GG\LL	2b/	2d\	.
16AA\	.	.	.
16BB\	.	.	.
16C#\JJ	.	.	.
16D\LL	.	.	.
16E\JJ)	.	.	.
8r	.	.	.
4E\	4g/	4c#\	.
=184	=184	=184	=184
(16C#\LL	16e/LL	4r	<
16D\	16f#/	.	.
16E\	16g/	.	.
16F#\JJ	16a/JJ	.	.
16G\LL	16b/LL	8r	.
16A\JJ)	16cc#/JJ	.	.
8r	8r	(16c#\LL	.
.	.	16d\JJ	.
4A\	4cc#/	16e\LL	.
.	.	16f#\	.
.	.	16g\	.
.	.	16a\JJ)	.
=185	=185	=185	=185
(16E\LL	(16g/LL	4r	.
16F#\	16a/	.	.
16G\	16b/	.	.
16A\JJ	16cc#/JJ	.	.
16B\LL	16dd/LL	8r	.
16c#\JJ)	16ee/JJ)	.	.
8r	8r	(16e\LL	.
.	.	16f#\JJ	.
4c#\	4ee/	16g\LL	.
.	.	16a\	.
.	.	16b\	.
.	.	16cc#\JJ)	.
=186	=186	=186	=186
(16e\LL	(16gg/LL	4r	.
16d\	16ff#/	.	.
16c#\	16ee/	.	.
16B\JJ	16dd/JJ	.	.
16A\LL	16cc#/LL	8r	.
16G\JJ)	(16b/JJ)	.	.
8r	8r	16g\LL	.
.	.	16f#\JJ	.
4G\	4b/	16e\LL	.
.	.	16d\	.
.	.	16c#\	.
.	.	16B\JJ)	.
=187	=187	=187	=187
(16c#\LL	(16ee/LL	4r	.
16B\	16dd/	.	.
16A\	16cc#/	.	.
16G\JJ	16b/JJ	.	.
16F#\LL	16a/LL	8r	.
16E\JJ)	16g/JJ	.	.
8r	8r	16e\LL)	.
.	.	16d\JJ	.
4E\	4g/	16c#\LL	.
.	.	16B\	.
.	.	16A\	.
.	.	16G\JJ	.
=188	=188	=188	=188
*^	*	*	*
16DD/LL	2r	4f#/	16d\LL	.
16EE/	.	.	16c#\	.
16FF#/	.	.	16B\	.
16GG/JJ	.	.	16A\JJ	.
16GG#/LL	.	8r	16G\LL	.
16AA/JJ	.	.	16F#\JJ	.
8r	.	16f#/LL	8r	.
.	.	16g/JJ	.	.
4F#/	4AA\	16a/LL	4r	.
.	.	16b/	.	.
.	.	16cc#/	.	.
.	.	16dd/JJ	.	.
*v	*v	*	*	*
=189	=189	=189	=189
16FF#/LL	4a/	16f#\LL	.
16GGn/	.	16e\	.
16AA/	.	16d\	.
16BB/JJ	.	16c#\JJ	.
16C#/LL	8r	16B\LL	.
16D/JJ	.	16A\JJ	.
8r	16a/LL	8r	.
.	16b/JJ	.	.
4D\	16cc#/LL	4A\	.
.	16dd/	.	.
.	16ee/	.	.
.	16ff#/JJ	.	.
=190	=190	=190	=190
16GG/LL	4b/	16g\LL	.
16AA/	.	16f#\	.
16BB/	.	16e\	.
16C#/JJ	.	16d\JJ	.
16D/LL	8r	16c#\LL	.
16E/JJ	.	16B\JJ	.
8r	16b/LL	8r	.
.	16cc#/JJ	.	.
4E\	16dd/LL	4g\	.
.	16ee/	.	.
.	16ff#/	.	.
.	16gg/JJ	.	.
=191	=191	=191	=191
16C#\LL	4gg/	16ee\LL	.
16D\	.	16dd\	.
16E\	.	16cc#\	.
16F#\JJ	.	16b\JJ	.
16G\LL	8r	16a\LL	.
16A\JJ	.	16g\JJ	.
8r	16gg/LL	8r	.
.	16aa/JJ	.	.
4A\	16bb/LL	4gg\	.
.	16ccc#/	.	.
.	16ddd/	.	.
.	16eee/JJ	.	.
=192	=192	=192	=192
*^	*	*	*
4.r	16D\LL	16fff#/LL	4ff#\	.
.	16C#\	16eee/	.	.
.	16BB\	16ddd/	.	.
.	16AA\JJ	16ccc#/JJ	.	.
.	16GG\LL	16bb/LL	8r	.
.	16FF#\JJ	16aa/JJ	.	.
16F#/LL	8r	8r	4.r	.
16G/JJ	.	.	.	.
16A/LL	4r	4aa/	.	.
16B/	.	.	.	.
16c#/	.	.	.	.
16d/JJ	.	.	.	.
=193	=193	=193	=193	=193
4.r	16BB\LL	16ddd/LL	4dd\	.
.	16AA\	16ccc#/	.	.
.	16GG\	16bb/	.	.
.	16FF#\JJ	16aa/JJ	.	.
.	16EE\LL	16gg/LL	8r	.
.	16DD\JJ	16ff#/JJ	.	.
16D/LL	8r	8r	4.r	.
16E/JJ	.	.	.	.
16F#/LL	4r	4ff#/	.	.
16G/	.	.	.	.
16A/	.	.	.	.
16B/JJ	.	.	.	.
*	*	*v	*v	*
=194	=194	=194	=194
16B/LL	16G\LL	4r	.
16A/	16F#\	.	.
16G/	16E\	.	.
16F#/JJ	16D\JJ	.	.
16E/LL	16C#\LL	8r	.
16D/JJ	16BB\JJ	.	.
8r	8r	16dd\LL	.
.	.	16ee\JJ	.
4D/	4BB\	16ff#\LL	.
.	.	16gg\	.
.	.	16aa\	.
.	.	16aa#\JJ	.
*v	*v	*	*
=195	=195	=195
16GG/LL	16bb\LL	.
16AA/	16aa\	.
16BB/	16gg\	.
16Cn/JJ	16ff#\JJ	.
16D/LL	16ee\LL	.
16E/	16dd\	.
16BB/	16gg\	.
16C/JJ	16ff#\JJ	.
16D\LL	16ee\LL	.
16E\	16dd\	.
16F#\	16ccn\	.
16G\JJ	16b\JJ	.
=196	=196	=196
*	*^	*
16AA\LL	4.r	16ee\LL	.
16BB\	.	16dd\	.
16C#\	.	16cc#\	.
16D\JJ	.	16b\JJ	.
16E\LL	.	16a/LL	.
16Fn\JJ	.	16g#/JJ	.
16AA/LL	[4.g#/	16e\LL	.
16BB/JJ	.	16d\JJ	.
16C#/LL	.	16c#\LL	.
16D/	.	16B\	.
16C#/	.	16A\	.
16BB/JJ	.	16G#\JJ	.
=197	=197	=197	=197
[4AA#/	4g#/]	16e\LL	.
.	.	16d\	.
.	.	16c#\	.
.	.	16d\JJ	.
16AA#/LL]	[2f#/	[4e\	.
16GG#/	.	.	.
16FF#/	.	.	.
16GG#/JJ	.	.	.
4AA#/	.	16e\LL]	.
.	.	16c#\	.
.	.	16d\	.
.	.	16e\JJ	.
=198	=198	=198	=198
16BB/LL	4f#/]	2d\	.
16C#/	.	.	.
16BB/	.	.	.
16AAn/JJ	.	.	.
(16GG#/LL	[2b/	.	.
16D/	.	.	.
16BB/	.	.	.
16Fn/JJ)	.	.	.
16G#\	.	16r	.
16r	.	16d\LL	.
8r	.	16B\	.
.	.	16fn\JJ	.
=199	=199	=199	=199
16AA\LL	8b/]	4f#\	.
16F#\	.	.	.
16D\	4a/	.	.
16A\JJ	.	.	.
16F#\LL	.	16d\LL	.
16d\JJ	.	16f#\	.
8BB/L	8g#/L	(16fn\	.
.	.	16d\JJ	.
8C#/	8gn/	16B-\LL	.
.	.	16e\	.
8D/J	[8f#/J	16d\	.
.	.	16A\JJ	.
=200	=200	=200	=200
*^	*	*	*
8GGG/	4r	8f#/L]	4B-\	ff
8r	.	8e/J	.	.
8r	2C#\	4.B-/)	2r	.
8G/	.	.	.	.
4E/	.	.	.	.
.	.	(8B-/	.	.
*v	*v	*	*	*
*	*v	*v	*
=201	=201	=201
BBnq\LL	.	.
C#q\JJ	.	.
*^	*	*
8.F#/L	4D\	16B-/LL)	.
.	.	16G#/J	.
.	.	[8A/J	.
16E#/Jk	.	.	.
8.F#/L	8r	16A/LL]	.
.	.	16c#/J	.
.	16D\LL	[8d/J	.
16Gn/Jk	16C#\JJ	.	.
8.A/L	16BB\LL	16d/LL]	.
.	16AA\	16c#/J	.
.	16GG\	[8d/J	.
16A#/Jk	16FF#\JJ	.	.
*v	*v	*	*
=202	=202	=202
*	*^	*
4BB/	16d/LL]	8.B\	.
*	*clefF4	*clefF4	*
.	16E#/J	.	.
.	[8F#/J	.	.
.	.	16C#\	.
8r	16F#/LL]	8.D\L	.
.	16F#/J	.	.
16BB/LL	[8G/J	.	.
16AA/JJ	.	16D#\Jk	.
16GG/LL	16G/LL]	8.En\L	.
16FF#/	16A/J	.	.
16EE/	[8B/J	.	.
16DD/JJ	.	16F#\Jk	.
=203	=203	=203	=203
4GG/	16B/LL]	8.G\L	.
.	16A#/J	.	.
.	[8B/J	.	.
.	.	16F#\Jk	.
8r	16B/LL]	8.G\L	.
*	*clefG2	*clefG2	*
.	16d/J	.	.
16GG/LL	[8e/J	.	.
16FF#/JJ	.	16An\Jk	.
16EE/LL	16e/LL]	8.B\L	.
16DD#/	16f#/J	.	.
16EE/	[8g/J	.	.
16DDn/JJ	.	16B-\Jk	.
=204	=204	=204	=204
16CC#/LL	8g/L]	4A\	.
16DD/	.	.	.
16CC#/	8g#/J	.	.
16BBB/JJ	.	.	.
16AAA/LL	4.a/	8r	.
16BBB/	.	.	.
16CC#/	.	8e\L	.
16DD/JJ	.	.	.
16DD#/LL	.	8c#\	.
16EE/	.	.	.
16FF#/	8gn/	[8A\J	.
16EE/JJ	.	.	.
=205	=205	=205	=205
16DDn/LL	4f#/	8A\L]	.
16EE/	.	.	.
16DD/	.	8A#\J	.
16CC#/JJ	.	.	.
16BBB/LL	8r	4.B\	.
16CC#/	.	.	.
16DD/	8f#/L	.	.
16EE/JJ	.	.	.
16EE#/LL	8d#/	.	.
16FF#/	.	.	.
16GG/	8B/J	(8An\	.
16FF#/JJ	.	.	.
=206	=206	=206	=206
16EEn/LL	8B/L)	8G\	.
16FFn/	.	.	.
16EE/	8b/J	8r	.
16DD/JJ	.	.	.
16CCn/LL	4.ccn/	8r	.
16DD/	.	.	.
16EE/	.	8g\L	.
16FF/JJ	.	.	.
16FF#/LL	.	8e\	.
16GG/	.	.	.
16AA/	8b/	[8cn\J	.
16GG/JJ	.	.	.
=207	=207	=207	=207
16FF#/LL	8a/	8c\L]	.
16GG/	.	.	.
16FF#/	8r	8c#\J	.
16EE/JJ	.	.	.
16DD/LL	8r	4.d\	.
16EE/	.	.	.
16FF#/	8a/L	.	.
16GG/JJ	.	.	.
16GG#/LL	8f#/	.	.
16AA/	.	.	.
16BB/	[8d/J	8cn\	.
16AA/JJ	.	.	.
=208	=208	=208	=208
8GG/	8d/L]	16B\LL	p
.	.	16cn\	.
8r	(16dd/L	16B\	.
.	16ccn/JJ	16A\JJ	.
8G\L	[4b/)	16G\LL	.
.	.	16A\	.
8Fn\J	.	16B\	.
.	.	16c\JJ	.
8E\	(8b/L]	16c#\LL	<
.	.	16d\	.
8r	[8ee/J)	16G#\	.
.	.	16d\JJ	.
*	*v	*v	*
=209	=209	=209
*k[f#]	*k[f#]	*k[f#]
*	*^	*
(4G#\	(8ee/L]	16cn\LL	.
.	.	16d\	.
.	16ee/L	16c\	.
.	16dd/JJ	16B\JJ	.
8A\L	(4cc/)	16A\LL	.
.	.	16B\	.
8Gn\J	.	16c\	.
.	.	16d\JJ	.
8F#\)	8cc#/L)	16d#\LL	.
.	.	16e\	.
8r	[8ff#/J	16A#\	.
.	.	16e\JJ	.
=210	=210	=210	=210
(4A#\	8ff#/L]	16dn\LL	.
.	.	16e\	.
.	(16ff#/L	16d\	.
.	16ee/JJ)	16c#\JJ	.
8B\L	[4dd/	16B\LL	.
.	.	16c#\	.
8An\J	.	16d\	.
.	.	16e\JJ	.
8G\)	(8dd/L]	16fn\LL	.
.	.	16f#\	.
8r	16b/L	16g\	.
.	[16gg/JJ)	16fn\JJ	.
=211	=211	=211	=211
(4B\	8gg/L]	16e\LL	.
.	.	16fn\	.
.	(16gg/L	16e\	.
.	16ffn/JJ	16d\JJ	.
8c\L	(8ee/L)	16cn\LL	.
.	.	16d\	.
8B\	8gg/	16e\	.
.	.	16d\JJ	.
8A\	8ff#/	16c\LL	.
.	.	16d\	.
8G\J)	8gg/J)	16c\	.
.	.	16B\JJ	.
=212	=212	=212	=212
*^	*	*	*
16A/LL	8F#\L	8ccc/	2r	ff
16B/	.	.	.	.
16A/	8E\J	8r	.	.
16G/JJ	.	.	.	.
4F#/	16E-\LL	2a/	.	.
.	16D\	.	.	.
.	16C\	.	.	.
.	16D\JJ	.	.	.
4r	16E-\LL	.	4f#\	.
.	16D\	.	.	.
.	16E-\	.	.	.
.	16C\JJ	.	.	.
*	*	*v	*v	*
=213	=213	=213	=213
.	.	ggq/L	.
.	.	aq/J	.
4r	8r	4g/	.
.	8B\	.	.
8r	4.BB\	8r	.
8A/	.	16g/LL	.
.	.	16a/JJ	.
4G/	.	16b\LL	.
.	.	16cc\	.
.	8r	16dd\	.
.	.	16ee\JJ	.
=214	=214	=214	=214
4r	8r	4b\	.
.	8G\	.	.
8r	4.GG\	8r	.
8F#/	.	16b\LL	.
.	.	16cc\JJ	.
8E/L	.	16dd\LL	.
.	.	16ee\	.
8D/J	8BB\	16ff#\	.
.	.	16gg\JJ	.
*v	*v	*	*
=215	=215	=215
8AA\ 8C\L	4dd\	.
8c\	.	.
8C\ 8E\	8r	.
8BB\ 8D\	16dd\LL	.
.	16ee\JJ	.
8AA\ 8C\	16ff#\LL	.
.	16ee\	.
8GG\ 8BB\J	16ff#\	.
.	16gg\JJ	.
=216	=216	=216
*^	*	*
4AA/	8FF#\L	16aa/LL	.
.	.	16gg#/	.
.	8E-\J	16aa/	.
.	.	16bb/JJ	.
8r	[2D\	16ccc/LL	.
.	.	16bb/	.
8En/L	.	16aa/	.
.	.	16ggn/JJ	.
8F#/	.	16ff#/LL	.
.	.	16ee-/	.
8G/J	.	16dd/	.
.	.	16een/JJ	.
=217	=217	=217	=217
8A/L	4.D\]	16ff#/LL	.
.	.	16ee/	.
8B/	.	16dd/	.
.	.	16cc/JJ	.
8c/	.	16b/LL	.
.	.	16a/	.
8B/	8D\L	16g/	.
.	.	16a/JJ	.
8A/	8C\	16b/LL	.
.	.	16cc/	.
[8G/J	8BB\J	16dd/	.
.	.	16dd#/JJ	.
=218	=218	=218	=218
8G/]	4C\	16ee/LL	.
.	.	16gg/	.
4c/	.	16ff#/	.
.	.	16ee/JJ	.
.	4D\	16ddn/LL	.
.	.	16gg/	.
8B/	.	16ff#/	.
.	.	16gg/JJ	.
16B-/LL	4E\	4cc#/	.
16g/	.	.	.
16f#/	.	.	.
16g/JJ	.	.	.
*v	*v	*	*
=219	=219	=219
*	*^	*
16F#\LL	2ccn/	8a\L	.
16A\	.	.	.
16G\	.	8e-\	.
16F#\JJ	.	.	.
16En\LL	.	8f#\	.
16D\	.	.	.
16E\	.	[8a\	.
16F#\JJ	.	.	.
16G\LL	4b/	8a\]	.
16D\	.	.	.
16G\	.	8g\J	.
16F#\JJ	.	.	.
=220	=220	=220	=220
*^	*	*	*
2r	16E\LL	8cc#/L	4r	.
.	16F#\	.	.	.
.	16E\	8dd/	.	.
.	16D\JJ	.	.	.
.	16C#\LL	8ee/	8g\	.
.	16D\	.	.	.
.	16C#\	8ff#/J	8r	.
.	16BB\JJ	.	.	.
[4D/	8AA\L	[4gg/	4r	.
.	8GG#\J	.	.	.
*	*	*v	*v	*
=221	=221	=221	=221
4D/]	2AA\	8gg/L]	.
.	.	8ff#/J	.
(C#q/LL	.	.	.
Dq/JJ	.	.	.
4C#/)	.	8ee/L	.
.	.	16gg/L	.
.	.	16ff#/JJ	.
8r	8r	4f#/	.
16D/LL	8BB\	.	.
16E/JJ	.	.	.
=222	=222	=222	=222
16F#/LL	4AA\	4r	.
16G/	.	.	.
16A/	.	.	.
16B/JJ	.	.	.
4F#/	4r	8r	.
.	.	(16ee\LL	.
.	.	16dd\JJ	.
8r	8r	4d/)	.
16F#/LL	8GG\	.	.
16G/JJ	.	.	.
=223	=223	=223	=223
16A/LL	4F#\	4r	.
16B/	.	.	.
16c#/	.	.	.
16d/JJ	.	.	.
4A/	4r	8r	.
.	.	16bb/LL	.
.	.	16aa/JJ	.
8r	8r	16ff#/LL	.
.	.	16dd/	.
16A/LL	8D\	16cc#/	.
16B/JJ	.	16b/JJ	.
*v	*v	*	*
=224	=224	=224
*	*^	*
16E\LL	4b-/	16c#\LL	.
16D#\	.	16B#\	.
16E\	.	16c#\	.
16F#\JJ	.	16d#\JJ	.
16G\LL	4.a/	16e\LL	.
16F#\	.	16d#\	.
16G\	.	16e\	.
16A\JJ	.	16f#\JJ	.
16B\LL	.	16g\LL	.
16A\	.	16f#\	.
16G\	8bn/	16e\	.
16G#\JJ	.	16dn\JJ	.
*	*v	*v	*
=225	=225	=225
*^	*	*
16A/LL	8AA\	16cc#/LL	.
16G#/	.	16b#/	.
16A/	8r	16cc#/	.
16B/JJ	.	16dd/JJ	.
8c#/L	8r	16ee/LL	.
.	.	16dd#/	.
16C#/L	4AA\	16ee/	.
16D/JJ	.	16ff#/JJ	.
[4E/	.	16gg/LL	.
.	.	16ff#/	.
.	8BB\	16ee/	.
.	.	16ddn/JJ	.
=226	=226	=226	=226
8E/L]	8C#\L	16cc#/LL	.
.	.	16b-/	.
16F#/L	[8D\J	16a/	.
16G/JJ	.	16bn/JJ	.
16A/LL	4D\]	16ccn/LL	.
16G/	.	16b/	.
16F#/	.	16a/	.
16E/JJ	.	16g/JJ	.
16D/LL	4r	16f#/LL	.
16E/	.	16g/	.
16F#/	.	16a/	.
16G/JJ	.	16b/JJ	.
=227	=227	=227	=227
*	*	*^	*
16A/LL	4r	2cc/	2r	.
16B/	.	.	.	.
16c/	.	.	.	.
16d/JJ	.	.	.	.
16e/LL	8r	.	.	.
16d/	.	.	.	.
16e/	8D\	.	.	.
16f#/JJ	.	.	.	.
4r	16G\LL	4b/	4g\	.
.	16B\	.	.	.
.	16G\	.	.	.
.	16E\JJ	.	.	.
*	*	*v	*v	*
=228	=228	=228	=228
16F#/LL	4r	2a/	.
16E/	.	.	.
16F#/	.	.	.
16G/JJ	.	.	.
16A/LL	8r	.	.
16B/	.	.	.
16c#/	8BB\	.	.
16d#/JJ	.	.	.
4e/	4E\	16g#/LL	.
.	.	16b/	.
.	.	16g#/	.
.	.	16e/JJ	.
=229	=229	=229	=229
16E/LL	4r	2gn/	.
16Dn/	.	.	.
16E/	.	.	.
16F#/JJ	.	.	.
16G/LL	8r	.	.
16A/	.	.	.
16B/	8AA\	.	.
16c#/JJ	.	.	.
4d/	4D\	16f#/LL	.
.	.	16a/	.
.	.	16f#/	.
.	.	16d/JJ	.
*v	*v	*	*
=230	=230	=230
*	*^	*
2A\	4r	16f#\LL	.
.	.	16e\	.
.	.	16f#\	.
.	.	16g\JJ	.
.	8r	16a\LL	.
.	.	16b\	.
.	8bb/	16cc#\	.
.	.	16dd#\JJ	.
16G#\LL	8r	8ee\	.
16B\	.	.	.
16G#\	8eee/	8r	.
16E\JJ	.	.	.
=231	=231	=231	=231
2Gn\	4r	16e\LL	.
.	.	16dn\	.
.	.	16e\	.
.	.	16f#\JJ	.
.	8r	16g\LL	.
.	.	16a\	.
.	8aa/	16b\	.
.	.	16cc#\JJ	.
16F#\LL	8r	8dd\	.
16A\	.	.	.
16F#\	8ddd/	8r	.
16D\JJ	.	.	.
=232	=232	=232	=232
2Fn\	4r	16d\LL	.
.	.	16cn\	.
.	.	16d\	.
.	.	16e-\JJ	.
.	8r	16fn\LL	.
.	.	16g\	.
.	8gg/	16a\	.
.	.	16b\JJ	.
16E-\LL	8r	8ccn\	.
16G\	.	.	.
16E-\	[8ccc/	8r	.
16C\JJ	.	.	.
=233	=233	=233	=233
8A-\	16ccc/LL]	4r	f
.	16een/	.	.
8r	16ffn/	.	.
.	16gg/JJ	.	.
2FFn/	8aa-/	16r	.
.	.	16en\LL	.
.	8r	16f#\	.
.	.	16g\JJ	.
.	16r	[4a-\	.
.	16b-/LL	.	.
.	16cc/	.	.
.	16dd/JJ	.	.
=234	=234	=234	=234
*k[b-e-a-]	*k[b-e-a-]	*k[b-e-a-]	*k[b-e-a-]
4EE-/	4ee-/	16a-\LL]	.
.	.	16g\	.
.	.	16b-\	.
.	.	16a-\JJ	.
8r	4r	16g\LL	.
.	.	16f\	.
16EE-/LL	.	16e-\	.
16FF/JJ	.	16d\JJ	.
16GG/LL	16ee-/LL	[4e-\	.
16AA-/	16dd/	.	.
16BB-/	16cc/	.	.
16C/JJ	16b-/JJ	.	.
=235	=235	=235	=235
4GG/	16ee-/LL	4e-\]	.
.	16b-/	.	.
.	16ee-/	.	.
.	16dd/JJ	.	.
8r	16cc/LL	4r	.
.	16b-/	.	.
16GG/LL	16a-/	.	.
16AA-/JJ	16g/JJ	.	.
16BB-/LL	[4gg/	16ee-\LL	.
16C/	.	16dd\	.
16D/	.	16cc\	.
16E-/JJ	.	16b-\JJ	.
=236	=236	=236	=236
4BB-/	16gg/LL]	4dd\	.
.	16ff/	.	.
.	16aa-/	.	.
.	16gg/JJ	.	.
8r	16ff/LL	4r	.
.	16ee-/	.	.
16BB-/LL	16dd/	.	.
16C/JJ	16cc/JJ	.	.
16D/LL	[4b-/	16f\LL	.
16C/	.	16g\	.
16D/	.	16f\	.
16E-/JJ	.	16e-\JJ	.
=237	=237	=237	=237
16F\LL	4b-/_	16d\LL	.
16En\	.	16c\	.
16F\	.	16d\	.
16G\JJ	.	16e-\JJ	.
16A-\LL	16b-/LL]	[4f\	.
16G\	16cc/	.	.
16F\	16dd/	.	.
16E-\JJ	16ee-/JJ	.	.
16D\LL	[4ff/	16f\LL]	.
16E-\	.	16g\	.
16D\	.	16a-\	.
16C\JJ	.	16an\JJ	.
=238	=238	=238	=238
16BB-/LL	16ff/LL]	[4b-\	.
16C/	16gg/	.	.
16BB-/	16aa-/	.	.
16AA-/JJ	16aan/JJ	.	.
16GG/LL	4bb-/	16b-\LL]	.
16AA-/	.	16cc\	.
16BB-/	.	16dd\	.
16C/JJ	.	16ee-\JJ	.
16D\LL	16aa-/LL	16ff\LL	.
16E-\	16gg/	16ee-\	.
16F\	16ff/	16dd\	.
16G\JJ	16ee-/JJ	16ee-\JJ	.
=239	=239	=239	=239
16AA-/LL	8ccc/	4r	f
16BB-/	.	.	.
16C/	8r	.	.
16D-/JJ	.	.	.
16E-\LL	2r	2a-/	.
16F\	.	.	.
16G\	.	.	.
16A-\JJ	.	.	.
16B-\LL	.	.	.
16Bn\J	.	.	.
8c\J	.	.	.
*clefG2	*	*	*
*	*v	*v	*
=240	=240	=240
8aa-\	16ff\LL	f
.	16gg\	.
8r	16aa-\	.
.	16bb-\JJ	.
2f/	16ccc\LL	.
.	16ddd\	.
.	16eee-\	.
.	16eeen\JJ	.
.	16fff\LL	.
.	16ggg\J	.
.	8aaa-\J	.
*clefF4	*	*
=241	=241	=241
*	*^	*
16G\LL	8bbb-\	4r	.
16A-\	.	.	.
16B-\	8r	.	.
16c\JJ	.	.	.
2r	2gg/	16d\LL	.
.	.	16e-\	.
.	.	16f\	.
.	.	16g\JJ	.
.	.	16a-\LL	.
.	.	16an\J	.
.	.	8b-\J	.
*	*v	*v	*
=242	=242	=242
8G\	16ee-\LL	f
.	16ff\	.
8r	16gg\	.
.	16aa-\JJ	.
2EE-/	16bb-\LL	.
.	16ccc\	.
.	16ddd-\	.
.	16dddn\JJ	.
.	16eee-\LL	.
.	16fff\	.
.	16ggg-\	.
.	16gggn\JJ	.
=243	=243	=243
*	*^	*
8BBB-/	8aaa-/	16bb-\LL	f
.	.	16aa-\	.
8r	8r	16gg\	.
.	.	16ff\JJ	.
2D\	2ff/	16ee-\LL	.
.	.	16dd\	.
.	.	16cc\	.
.	.	16b-\JJ	.
.	.	16an\LL	.
.	.	16b-\	.
.	.	16f\	.
.	.	16a-\JJ	.
=244	=244	=244	=244
8EE-/	16r	8g\	f
.	16bb-/LL	.	.
8r	16ccc/	8r	.
.	16ddd/JJ	.	.
2G\	16eee-/LL	2bb-\	.
.	16ddd/	.	.
.	16eee-/	.	.
.	16fff/JJ	.	.
.	16ggg/LL	.	.
.	16fff/	.	.
.	16ggg/	.	.
.	16aaa-/JJ	.	.
=245	=245	=245	=245
8CC/	8bbb-/	8r	f
8r	8r	16aa-\LL	.
.	.	16gg\JJ	.
2En\	2gg/	16ff\LL	.
.	.	16een\	.
.	.	16dd-\	.
.	.	16cc\JJ	.
.	.	16bn\LL	.
.	.	16cc\	.
.	.	16g\	.
.	.	16b-\JJ	.
=246	=246	=246	=246
8FF/	8r	8a-\	f
8r	16ccc/LL	8r	.
.	16eeen/JJ	.	.
2A-\	16fff/LL	4.ccc\	.
.	16ggg/	.	.
.	16aaa-/	.	.
.	16ggg/JJ	.	.
.	16fff/LL	.	.
.	16eee-/	.	.
.	16ddd/	8ff#\	.
.	16ccc/JJ	.	.
=247	=247	=247	=247
8G\	8dd/L	8r	.
8Bn\L	8Bn/J	4r	.
8GG\J	8r	.	.
8r	8r	8G\L	.
8r	8r	8bn\J	.
8e-\	8gg/	8gg\ 8bbn\	.
=248	=248	=248	=248
8C/	8e-/	8r	.
8r	8r	8c\L	.
8r	8r	8ee-\J	.
8An\L	8ccc/L	8r	.
8FF#\J	8an/J	8r	.
8r	8r	8d\	.
*	*v	*v	*
=249	=249	=249
8r	8ff#\	.
8B-\L	8ddd/L	.
8GG\J	8b-/J	.
8r	8g\L	.
8r	8bb-\J	.
8en\	8ggg/	.
=250	=250	=250
*k[b-]	*k[b-]	*k[b-]
8C#/	8ee/	.
8r	8cc#\L	.
8r	8eee\J	.
8A\L	8aa\ 8aaa\L	.
8F\J	8ff\ 8fff\J	.
8D\	8dd/ 8ddd/	.
=251	=251	=251
8AA/L	8a/ 8aa/L	.
8FF/	8f/ 8ff/	.
8DD/	8d/ 8dd/	.
8AAA/ 8AA/	8A/ 8a/	.
8BBB-/ 8BB-/	8G#/ 8d/ 8g#/	.
8BBB-/ 8BB-/J	8g#/ 8dd/ 8gg#/J	.
=252	=252	=252
8AAA'/ 8CC#'/ 8EE'/ 8AA'/	8a'\ 8cc#'\ 8aa'\	f
8r	8r	.
8AAA'/ 8CC#'/ 8EE'/ 8AA'/	8aa'\ 8ccc#'\ 8eee'\ 8aaa'\	.
8r	8r	.
4r	4r	.
=253	=253	=253
2.r	2.r	.
=254	=254	=254
*k[f#c#]	*k[f#c#]	*k[f#c#]
*	*^	*
2.r	4r	2.r	.
.	4a/	.	pp
.	4g/	.	.
=255	=255	=255	=255
2.r	4f#/	2.r	.
.	4g/	.	.
.	4a/	.	.
=256	=256	=256	=256
2.r	4d/	4r	.
.	4e/	4d\	.
.	4f#/	4cn\	.
=257	=257	=257	=257
2.r	2g/	4B\	.
.	.	4c#\	.
.	4f#/	(4d\	.
=258	=258	=258	=258
4r	2e/)	4d\	.
4A\	.	2c#\	.
4G\	[4a/	.	.
=259	=259	=259	=259
4F#\	2.a/]	4d#\	.
4G\	.	4e\	.
[4A\	.	[4f#\	.
=260	=260	=260	=260
4A\]	4b/	4f#\]	.
4G\	4cc#/	4e\	.
4F#\	4dd/	[4dn\	.
=261	=261	=261	=261
4B\	4a/	4d\]	.
4C#\	4g/	4e\	.
4D\	[4f#/	4A\	.
=262	=262	=262	=262
4GG/	4f#/]	4A#\	.
4GG#/	[2e/	4B\	.
4AA/	.	4c#\	.
=263	=263	=263	=263
4BB/	4e/]	4d\	.
4FF#/	4ee/	4a\	.
4GG#/	4dd/	[4b\	.
=264	=264	=264	=264
4AA/	4cc#/	4b\]	.
4BB/	4dd/	4a\	.
4C#/	4ee/	4gn\	.
=265	=265	=265	=265
4D\	4a/	4f#\	.
4d\	4b/	4g\	.
4cn\	4ccn/	4a\	.
=266	=266	=266	=266
4B\	2dd/	4d\	.
4cn\	.	4e\	.
4d\	[4ccn/	4f#\	.
=267	=267	=267	=267
4G\	4cc/]	2g\	.
4A\	4b/	.	.
4B\	[4a/	[4f#\	.
=268	=268	=268	=268
4E\	4a/]	4f#\]	.
4F#\	4g/	4e\	.
4G\	4f#/	[4d\	.
=269	=269	=269	=269
4G#\	2e/	4d\]	.
4A\	.	2c#\	.
4Gn\	[4a/	.	.
=270	=270	=270	=270
4F#\	4a/]	2.d#\	.
4B\	4f#/	.	.
4A\	[4b/	.	.
=271	=271	=271	=271
*^	*	*	*
4r	2G\	4b/]	4e\	.
4c#/	.	4ee/	2r	.
4B/	4E#\	4ddn/	.	.
*	*	*v	*v	*
=272	=272	=272	=272
4A#/	2F#\	4cc#\	.
4dn/	.	4ff#\	.
4c#/	8G#\L	4ee\	.
.	8A#\J	.	.
=273	=273	=273	=273
4d/	4B\	4dd\	.
4c#/	4An\	4aa\	.
4e/	4c#\	4gg\	.
=274	=274	=274	=274
*	*	*^	*
4f#/	4d\	4r	4ff#\	.
2r	4F#\	4dd#/	4b\	.
.	4D#\	4ff#/	4a\	.
*v	*v	*	*	*
=275	=275	=275	=275
4E\	4b/	4g\	.
4e\	4a/	4f#\	.
4d\	4b/	4g#\	.
=276	=276	=276	=276
4c#\	4cc#/	4a\	.
4AA/	4ddn/	4b\	.
4GGn/	[4ee/	4cc#\	.
=277	=277	=277	=277
4FF#/	4ee/]	4a\	.
4GG#/	(4dd/	4fn\	.
[4AA/	4cc#/	4e\	.
=278	=278	=278	=278
4AA/]	[2.b/)	[2.d\	.
4GG#/	.	.	.
4EE/	.	.	.
=279	=279	=279	=279
4AA/	4b/]	4d\]	.
4A\	4a/	4c#\	.
4F#\	[4cc#/	[4d\	.
=280	=280	=280	=280
2G\	4cc#/]	4d\]	.
.	4b/	4e\	.
4E\	[4cc#/	[4g\	.
=281	=281	=281	=281
4E-\	(4cc#/]	4g\]	.
4D\	4dd/	4f#\	.
4Cn\	[4ee-/)	4g\	.
*	*v	*v	*
=282	=282	=282
*^	*	*
4A/	4Fn\	(4ee-/]	.
4B-/	4BB-\	4dd/	.
4En/	4BB-\	4dd-/)	.
*v	*v	*	*
=283	=283	=283
*k[b-e-]	*k[b-e-]	*k[b-e-]
*^	*^	*
8F/	4AA\	8cc/	4r	pp
8r	.	8r	.	.
2r	4C\	4ff/	2a\	.
.	4FF\	4ee-/	.	.
*v	*v	*	*	*
*	*v	*v	*
=284	=284	=284
.	(gq\LL	.
.	aq\JJ)	.
*	*^	*
4BB-/	4dd/	4b-\	.
4r	4ee-/	8r	.
.	.	16b-\LL	.
.	.	16a\JJ	.
4r	4ff/	16g\LL	.
.	.	16f\	.
.	.	16e-\	.
.	.	16d\JJ	.
=285	=285	=285	=285
2.r	4bn/	4g\	.
.	4cc/	8r	.
.	.	16g\LL	.
.	.	16f\JJ	.
.	4dd/	16e-\LL	.
.	.	16d\	.
.	.	16c\	.
.	.	16Bn\JJ	.
=286	=286	=286	=286
8GG/	8bn/	4d\	<
8r	8r	.	.
2Bn\	4r	4g\	.
.	4r	4f\	.
=287	=287	=287	=287
4c\	2.r	4en\	.
8r	.	4f\	.
16c\LL	.	.	.
16B-\JJ	.	.	.
16A\LL	.	4g\	.
16G\	.	.	.
16F\	.	.	.
16En\JJ	.	.	.
=288	=288	=288	=288
4A\	4r	4c\	.
8r	4cc/	4d\	.
16A\LL	.	.	.
16G\JJ	.	.	.
16F\LL	4b-/	4en\	.
16En\	.	.	.
16D\	.	.	.
16C\JJ	.	.	.
=289	=289	=289	=289
4F\	4a/	4f\	.
8r	4b-/	4g\	.
16F\LL	.	.	.
16En\JJ	.	.	.
16D/LL	4cc/	4a\	.
16C/	.	.	.
16BB-/	.	.	.
16AA/JJ	.	.	.
=290	=290	=290	=290
16C/LL	8f/	8e-\	.
16BB-/	.	.	.
16AA/	8r	4cc\	f
16GG/JJ	.	.	.
4FFF/ 4FF/	2aa/	.	.
.	.	4ff\	.
4EEE-/ 4EE-/	.	.	.
.	.	8gg-\	.
*	*v	*v	*
=291	=291	=291
*^	*	*
4r	4DDD\ 4DD\	8r	.
.	.	16bb-/LL	.
.	.	16aa/JJ	.
4r	4EEE-\ 4EE-\	16ggn/LL	.
.	.	16ff/	.
.	.	16ee-/	.
.	.	16dd/JJ	.
8r	4FFF\ 4FF\	4r	.
16B-/LL	.	.	.
16A-/JJ	.	.	.
=292	=292	=292	=292
16G/LL	4EEE-\ 4EE-\	4r	.
16F/	.	.	.
16E-/	.	.	.
16D/JJ	.	.	.
4r	4FFF\ 4FF\	8r	.
.	.	16gg/LL	.
.	.	16ff/JJ	.
4r	4GGG\ 4GG\	16ee-/LL	.
.	.	16dd/	.
.	.	16cc/	.
.	.	16b-/JJ	.
=293	=293	=293	=293
8r	4EEEn\ 4EEn\	4r	.
16c/LL	.	.	.
16B-/JJ	.	.	.
16A-/LL	4FFF\ 4FF\	4r	.
16G/	.	.	.
16F/	.	.	.
16En/JJ	.	.	.
4r	4GGG\ 4GG\	8r	.
.	.	16ff/LL	.
.	.	16een/JJ	.
=294	=294	=294	=294
4r	4FFF\ 4FF\	16dd-/LL	.
.	.	16cc/	.
.	.	16b-/	.
.	.	16an/JJ	.
8r	4GGG\ 4GG\	4r	.
16An/LL	.	.	.
16G/JJ	.	.	.
16F#/LL	4AAA\ 4AA\	4r	.
16E-/	.	.	.
16Dn/	.	.	.
16C/JJ	.	.	.
=295	=295	=295	=295
4r	4FFF#\ 4FF#\	8r	.
.	.	16ddd/LL	.
.	.	16ccc/JJ	.
4r	4GGG\ 4GG\	16bb-/LL	.
.	.	16aa/	.
.	.	16gg/	.
.	.	16ff#/JJ	.
8r	4AAA\ 4AA\	4r	.
16d/LL	.	.	.
16c#/JJ	.	.	.
=296	=296	=296	=296
16cn/LL	4GGG\ 4GG\	4r	.
16B-/	.	.	.
16A/	.	.	.
16G/JJ	.	.	.
4r	4AAA\ 4AA\	8r	.
.	.	16ee-/LL	.
.	.	16dd/JJ	.
4r	16BBB-\LL	16cc/LL	.
.	16BB-\	16b-/	.
.	16C\	16a/	.
.	16BB-\JJ	16g/JJ	.
*v	*v	*	*
=297	=297	=297
*	*^	*
16AA/LL	16f/LL	8r	.
16GG/	16en/J	.	.
16FF/	8b-/J	16d\LL	.
16EEn/JJ	.	16c\JJ	.
*	*v	*v	*
*	*clefF4	*clefF4
*	*^	*
16GG/LL	2r	16B-\LL	.
16FF/	.	16A\	.
16En/	.	16G\	.
16D/JJ	.	16F\JJ	.
16C/LL	.	16En\LL	.
16BB-/	.	16D\	.
16AA/	.	16c\	.
16GG/JJ	.	16B-\JJ	.
*	*v	*v	*
=298	=298	=298
16FF/LL	16A\LL	.
16EEn/	16G\	.
16DD/	16F\	.
16CC/JJ	16En\JJ	.
8B-\	16D\LL	ff
.	16C\	.
8r	16E\	.
.	16G\JJ	.
[4GG/	8BB-/	.
.	8r	.
*	*clefG2	*clefG2
=299	=299	=299
4GG/]	2en/	.
4FF/	.	.
.	(dq/LL	.
.	eq/JJ)	.
8r	4f/	.
16FF/LL	.	.
16GG/JJ	.	.
=300	=300	=300
16AA/LL	8r	.
16BB-/	.	.
16C/	16f/LL	.
16D/JJ	16en/JJ	.
4AA/	16d/LL	.
.	16c/	.
.	16B-/	.
.	16A/JJ	.
8r	4d/	.
16AA/LL	.	.
16BB-/JJ	.	.
=301	=301	=301
*^	*	*
4r	16C\LL	8r	.
.	16D\	.	.
.	16En\	16d/LL	.
.	16F\JJ	16c/JJ	.
16B-/LL	4C\	4r	.
16A/	.	.	.
16G/	.	.	.
16F/JJ	.	.	.
4B-/	8r	4r	.
.	16C\LL	.	.
.	16D\JJ	.	.
*v	*v	*	*
=302	=302	=302
16En\LL	8r	.
16D\	.	.
16E\	16b-\LL	.
16F\JJ	16a\JJ	.
16G\LL	16g\LL	.
16F\	16a\	.
16G\	16g\	.
16A\JJ	16f\JJ	.
16B-\LL	16en\LL	.
16A\	16f\	.
16G\	16e\	.
16A\JJ	16d\JJ	.
=303	=303	=303
*	*^	*
16B-\LL	2.r	16c\LL	.
16A\	.	16d\	.
16G\	.	16en\	.
16F\JJ	.	16f\JJ	.
16En\LL	.	16f#\LL	.
16D\	.	16g\	.
16C\	.	16a\	.
16D\JJ	.	16g\JJ	.
16E-\LL	.	16fn\LL	.
16D\	.	16g\	.
16C\	.	16a\	.
16BB-\JJ	.	16b-\JJ	.
=304	=304	=304	=304
*^	*	*	*
2r	16D\LL	4r	16bn\LL	.
.	16C\	.	16cc\	.
.	16BB-\	.	16dd\	.
.	16AA\JJ	.	16cc\JJ	.
.	16BB-\LL	8ee-/	16dd\LL	ff
.	16AA\	.	16cc\	.
.	16GG\	8r	16b-\	.
.	16FF\JJ	.	16a\JJ	.
[4E-/	8r	4r	[4c/	.
.	8FFF\	.	.	.
*	*	*v	*v	*
=305	=305	=305	=305
4E-/]	2AA\	4c/]	ff
4D/	.	4B-/	.
*v	*v	*	*
4BB-\	8r	.
.	16B-/LL	.
.	16c/JJ	.
=306	=306	=306
*^	*^	*
4r	8r	16d/LL	8r	.
.	.	16e-/	.	.
.	16BB-\LL	16f/	16d\LL	.
.	16AA\JJ	16g/JJ	16c\JJ	.
16B-/LL	16GG\LL	4e-/	2r	.
16A/	16FF\	.	.	.
16G/	16EE-\	.	.	.
16F/JJ	16DD\JJ	.	.	.
4B-/	4GG\	8r	.	.
.	.	(16d/LL	.	.
.	.	16e-/JJ)	.	.
*v	*v	*	*	*
=307	=307	=307	=307
8r	16f/LL	8r	.
.	16g/	.	.
16GG/LL	16a/	[8B-\	.
16FF/JJ	16b-/JJ	.	.
16EE-/LL	4g/	16B-\LL]	.
16DD/	.	16Bn\	.
16CC/	.	16c\	.
16BBBn/JJ	.	16d\JJ	.
4CC/	8r	4e-\	.
.	16f/LL	.	.
.	16g/JJ	.	.
=308	=308	=308	=308
8r	16a/LL	8r	.
.	16g/	.	.
16E-\LL	16a/	4e-\	<
16D\JJ	16b-/JJ	.	.
16C/LL	16cc/LL	.	.
16D/	16b-/	.	.
16C/	16cc/	4en\	.
16BB-/JJ	16dd/JJ	.	.
16AA/LL	16ee-/LL	.	.
16BB-/	16dd/	.	.
16AA/	16cc/	[8f\	.
16GG/JJ	16dd/JJ	.	.
=309	=309	=309	=309
16FF/LL	16ee-/LL	4.f\]	>
16GG/	16dd/	.	.
16AA/	16cc#/	.	.
16BB-/JJ	16ccn/JJ	.	.
16C/LL	16b-/LL	.	.
16C#/	16a/	.	.
16D/	16g/	8e-\	.
16Cn/JJ	16a/JJ	.	.
16BB-/LL	16b-/LL	(4d\	.
16C/	16a/	.	.
16D/	16g/	.	.
16E-/JJ	[16f/JJ	.	.
=310	=310	=310	=310
16En\LL	16f/LL]	8c\)	.
16E-\	16ff#/	.	.
16D\	16gg/	8r	.
16E-\JJ	16ffn/JJ	.	.
16F\LL	16ee-/LL	4r	.
16G\	16dd/	.	.
16A\	16cc/	.	.
16B-\JJ	16b-/JJ	.	.
16c\LL	16a/LL	4r	.
16B-\	16b-/	.	.
16c\	16a/	.	.
16d\JJ	16g/JJ	.	.
=311	=311	=311	=311
16e-\LL	16f/LL	4r	.
16d\	16g/	.	.
16c#\	16a/	.	.
16cn\JJ	16b-/JJ	.	.
16B-\LL	16cc/LL	4r	.
16A\	16cc#/	.	.
16G\	16dd/	.	.
16A\JJ	16ccn/JJ	.	.
16B-\LL	16dd/LL	8b-\	.
16A\	16een/	.	.
16G\	16ff/	8r	.
16F\JJ	[16gg/JJ	.	.
*	*v	*v	*
=312	=312	=312
*^	*	*
2G/	4En\	16gg\LL]	.
.	.	16cc\	.
.	.	16dd\	.
.	.	16een\JJ	.
.	4BB-\	16ff\LL	.
.	.	16gg\	.
.	.	16aa\	.
.	.	16bb-\JJ	.
4F/	4AA\	16ccc\LL	.
.	.	16aa\	.
.	.	16gg\	.
.	.	16ff\JJ	.
=313	=313	=313	=313
2A/	4F#\	16ee-\LL	.
.	.	16dd\	.
.	.	16een\	.
.	.	16ff#\JJ	.
.	4C\	16gg\LL	.
.	.	16aa\	.
.	.	16bb-\	.
.	.	16ccc\JJ	.
4G/	4BB-\	16ddd\LL	.
.	.	16bb-\	.
.	.	16aa\	.
.	.	16gg\JJ	.
=314	=314	=314	=314
2B-/	4G\	16ffn\LL	.
.	.	16ee-\	.
.	.	16ff\	.
.	.	16gg\JJ	.
.	4D\	16aa\LL	.
.	.	16bb-\	.
.	.	16ccc\	.
.	.	16ddd\JJ	.
4A/	8C\L	8eee-\	.
.	[8FF#\J	8r	.
*v	*v	*	*
=315	=315	=315
*	*^	*
16FF#/LL]	2cc/	4a\	f
16GG/	.	.	.
16AA/	.	.	.
16BB-/JJ	.	.	.
16C\LL	.	4e-\	.
16D\	.	.	.
16En\	.	.	.
16F#\JJ	.	.	.
16GG/LL	4b-/	8d\L	.
16G/	.	.	.
16FFn/	.	8d-\J	.
16Fn/JJ	.	.	.
=316	=316	=316	=316
16EEn/LL	2b-/	4g\	.
16FF/	.	.	.
16GG/	.	.	.
16AA/JJ	.	.	.
16BB-/LL	.	4d-\	.
16C/	.	.	.
16Dn/	.	.	.
16En/JJ	.	.	.
16FF/LL	8a/L	8c\L	.
16F/	.	.	.
16EE-/	8a/J	8c-\J	.
16E-/JJ	.	.	.
=317	=317	=317	=317
16DD/LL	2a-/	4f\	.
16EE-/	.	.	.
16FF/	.	.	.
16GG/JJ	.	.	.
16AA-/LL	.	4c-\	.
16BB-/	.	.	.
16Cn/	.	.	.
16D/JJ	.	.	.
16EE-/LL	4g/	8B-\L	.
16E-/JJ	.	.	.
8DD-/ 8D-/	.	8en\J	.
*	*v	*v	*
=318	=318	=318
*^	*	*
16D-/LL	2BBB-\	4r	.
16C/	.	.	.
16Dn/	.	.	.
16En/JJ	.	.	.
16F/LL	.	8r	.
16G/	.	.	.
16An/	.	8g/L	.
16B-/JJ	.	.	.
16c/LL	4AAAn\	8en/	.
16A/	.	.	.
16G/	.	8f/J	.
16F/JJ	.	.	.
=319	=319	=319	=319
16E-/LL	2CC\	4r	.
16D/	.	.	.
16En/	.	.	.
16F#/JJ	.	.	.
16G/LL	.	8r	.
16A/	.	.	.
16B-/	.	8a/L	.
16c/JJ	.	.	.
16d/LL	4BBB-\	8f#/	.
16B-/	.	.	.
16A/	.	8g/J	.
16G/JJ	.	.	.
=320	=320	=320	=320
16Fn/LL	2DD\	4r	.
16E-/	.	.	.
16F/	.	.	.
16G/JJ	.	.	.
16A/LL	.	8r	.
16B-/	.	.	.
16c/	.	8b-/L	.
16d/JJ	.	.	.
16e-/LL	4CC\	8g/	.
16c/	.	.	.
16B-/	.	8a/J	.
16A/JJ	.	.	.
*v	*v	*	*
=321	=321	=321
*	*^	*
4EE-/	8cc/L	16a\LL	.
.	.	16f\	.
.	[8ff/J	16g\	.
.	.	16a\JJ	.
4DD/	8ff/L]	16b-\LL	.
.	.	16a\	.
.	8dd/	16b-\	.
.	.	16f\JJ	.
8EEn/L	8cc/	16g\LL	.
.	.	16f#\	.
8En/J	8b-/J	16g\	.
.	.	[16c\JJ	.
=322	=322	=322	=322
*^	*	*	*
16r	2.F\	8a/L	16c\]	.
16e-/LL	.	.	8.r	.
16d/	.	8a-/J	.	.
16c/JJ	.	.	.	.
16Bn/LL	.	4.gg/	16g\LL	.
16c/	.	.	16an\	.
16d/	.	.	16bn\	.
16e-/JJ	.	.	16cc\JJ	.
16en/LL	.	.	16cc#\LL	.
16f/	.	.	16dd\	.
16g/	.	8ff/	16ee-\	.
16f/JJ	.	.	16dd\JJ	.
*v	*v	*	*	*
=323	=323	=323	=323
2.F\	(8ff/L	16c\LL	p
.	.	16d\	.
.	8ee-/	16e-\	.
.	.	16f\JJ	.
.	8dd/	16f#\LL	.
.	.	16g\	.
.	8ccn/	16a-\	.
.	.	16g\JJ	.
.	8bn/	16f#\LL	.
.	.	16e-\	.
.	8cc/J)	16d\	.
.	.	16e-\JJ	.
=324	=324	=324	=324
*^	*	*	*
16c/LL	2.F\	8ff/	16a\LL	.
16d/	.	.	16b-\	.
16c/	.	8r	16a\	.
16B-/JJ	.	.	16g\JJ	.
16A/LL	.	4.ee-/	16f\LL	.
16B-/	.	.	16g\	.
16c/	.	.	16a\	.
16d/JJ	.	.	16b-\JJ	.
16e-/LL	.	.	16bn\LL	.
16en/	.	.	16cc\	.
16f/	.	8ee-/	16dd\	.
16e-/JJ	.	.	16cc\JJ	.
*v	*v	*	*	*
=325	=325	=325	=325
[2F\	(8ee-/L	16B-\LL	.
.	.	16c\	.
.	8dd/	16d\	.
.	.	16e-\JJ	.
.	8cc/	16en\LL	.
.	.	16f\	.
.	8b-/	16g\	.
.	.	16f\JJ	.
8F\L]	8a/	16e-\LL	.
.	.	16d\	.
8F#\J	8b-/J)	16c\	.
.	.	16B-\JJ	.
=326	=326	=326	=326
8GG/ 8G/	2.r	16Bn\LL	f
.	.	16c\	.
8r	.	16B\	.
.	.	16A\JJ	.
4.FFn/ 4.Fn/	.	16G\LL	.
.	.	16A\	.
.	.	16B\	.
.	.	16c\JJ	.
.	.	16c#\LL	.
.	.	16d\	.
8FF/ 8F/	.	16e-\	.
.	.	16d\JJ	.
=327	=327	=327	=327
(8FF/ 8F/L	8cc/	16cn\LL	.
.	.	16d\	.
8EEn/ 8En/	8r	16en\	.
.	.	16f\JJ	.
8DD-/ 8D-/	4.b-/	16f\LL	.
.	.	16g\	.
8CC/ 8C/	.	16a-\	.
.	.	16g\JJ	.
8BBBn/ 8BBn/	.	16fn\LL	.
.	.	16e\	.
8CC/) 8C/J	8b-/	16d-\	.
.	.	16c\JJ	.
*	*v	*v	*
=328	=328	=328
8FF/ 8F/	16an/LL	.
.	16b-/	.
8r	16a/	.
.	16g/JJ	.
4.EE-/ 4.E-/	16f/LL	.
.	16g/	.
.	16a/	.
.	16b-/JJ	.
.	16bn/LL	.
.	16cc/	.
8EE-/ 8E-/	16dd/	.
.	16cc/JJ	.
=329	=329	=329
*	*^	*
(8EE-/ 8E-/L	16b-/LL	4r	.
.	16cc/	.	.
8DDn/ 8Dn/	16dd/	.	.
.	16ee-/JJ	.	.
8CC/ 8C/	16een/LL	4r	.
.	16ff/	.	.
8BBBn/) 8BBn/J	16gg/	.	.
.	16ff/JJ	.	.
4r	16bn/LL	(8g\L	.
.	16dd/	.	.
.	16ee-/	8f\J)	.
.	16ff/JJ	.	.
=330	=330	=330	=330
4r	16bn/LL	(8f\L	.
.	16cc/	.	.
.	16dd/	8e-\	.
.	16cc/JJ	.	.
4r	16dd/LL	8d\	.
.	16ee-/	.	.
.	16ff/	8c\J)	.
.	16ee-/JJ	.	.
(8FF/ 8F/L	16a/LL	4r	.
.	16cc/	.	.
8EE-/) 8E-/J	16dd/	.	.
.	16ee-/JJ	.	.
*	*v	*v	*
=331	=331	=331
(8EE-/ 8E-/L	16een\LL	.
.	16ff\	.
8DD/ 8D/	16gg\	.
.	16ff\JJ	.
8CC/ 8C/	16aa\LL	.
.	16bb-\	.
8BBB-/) 8BB-/J	16ccc\	.
.	16bb-\JJ	.
*clefG2	*	*
(8ee-\L	16ff#\LL	.
.	16gg\	.
8dd\J)	16aa\	.
.	16gg\JJ	.
=332	=332	=332
(8dd\L	16gg#\LL	.
.	16aa\	.
8cc\	16bb-\	.
.	16aa\JJ	.
8b-\	16bbn\LL	.
.	16ccc\	.
8a\J)	16ddd\	.
.	16ccc\JJ	.
(8dd\L	16een\LL	.
.	16ff#\	.
8cc\J)	16ggn\	.
.	16ff#\JJ	.
=333	=333	=333
(8cc\L	16gg\LL	.
.	16gg#\	.
8b-\	16aa\	.
.	16ggn\JJ	.
8dd\	16bb-\LL	.
.	16bbn\	.
8ee-\J)	16ccc\	.
.	16bb-\JJ	.
(8dd\L	16gg#\LL	.
.	16aa\	.
8cc\J)	16bb-\	.
.	16aa\JJ	.
=334	=334	=334
(8een\L	16ccc#\LL	.
.	16ddd\	.
8ff\	16eee-\	.
.	16ddd\JJ	.
8ee-\	16bbn\LL	.
.	16cccn\	.
8dd\J)	16ddd\	.
.	16bb-\JJ	.
*clefF4	*	*
(8FF#/ 8F#/L	16cc#\LL	f
.	16dd\	.
8GG/) 8G/J	16ccn\	.
.	16b-\JJ	.
=335	=335	=335
*	*^	*
8FFn/ 8Fn/L	8bn/L	16a-\LL	f
.	.	16d\	.
8EEn/ 8En/J	8cc/J	16g\	.
.	.	16en\JJ	.
8GG/ 8G/L	8b-/L	16d\LL	.
.	.	16e\	.
8AA/ 8A/J	8an/J	16c#\	.
.	.	16e\JJ	.
8GG/ 8G/L	8cc#/L	16b-\LL	.
.	.	16e\	.
8FF#/ 8F#/J	8dd/J	16a\	.
.	.	16f#\JJ	.
=336	=336	=336	=336
8AA\ 8A\L	8ccn/L	16e-\LL	.
.	.	16f#\	.
8BB-\ 8B-\J	8b-/J	16d\	.
.	.	16g\JJ	.
8FF#/ 8F#/L	8dd#/L	16bn\LL	.
.	.	16a\	.
8GG/ 8G/J	8een/J	16b\	.
.	.	16g\JJ	.
8DD#/ 8D#/L	8ff#/L	16dd-\LL	.
.	.	16cc\	.
8EEn/ 8En/J	8gg/J	16dd-\	.
.	.	16b\JJ	.
*	*v	*v	*
=337	=337	=337
*^	*	*
8B-\ 8d-\	4r	8en/ 8g/ 8b-/	ff
8r	.	8r	.
2BB-/	2GG\	2bb-\ 2ddd-\ 2eeen\	.
*v	*v	*	*
=338	=338	=338
*	*^	*
2.r	4ggg/	8r	.
.	.	8B-\	.
.	8r	2een\	.
.	16ggg/LL	.	.
.	16fff/JJ	.	.
.	16eeen/LL	.	.
.	16ddd-/	.	.
.	16ccc/	.	.
.	16bb-/JJ	.	.
=339	=339	=339	=339
4r	8r	4ff\	.
.	8aa/L	.	.
8r	8aaa/J	8r	.
8en/L	4r	16ff\LL	.
.	.	16een\JJ	.
8f/J	.	16dd\LL	.
.	.	16cc\	.
8r	8r	16b-\	.
.	.	16a\JJ	.
=340	=340	=340	=340
4r	8r	4dd\	.
.	8ff/L	.	.
8r	8fff/J	8r	.
8c#/L	4r	16dd\LL	.
.	.	16cc\JJ	.
8d/J	.	16b-\LL	.
.	.	16a\	.
8r	8r	16g\	.
.	.	16f\JJ	.
=341	=341	=341	=341
2.r	8r	4b-\	.
.	8dd'/L	.	.
.	(8ddd/	8r	.
.	8ccc/	16b-\LL	.
.	.	16a\JJ	.
.	8bb-/	16g\LL	.
.	.	16a\	.
.	8bbn/J)	16g\	.
.	.	16f\JJ	.
=342	=342	=342	=342
2.r	8ccc'/	16en\LL	.
.	.	16f\	.
.	8r	16e\	.
.	.	16d\JJ	.
.	4.bb-^/	16c\LL	.
.	.	16d\	.
.	.	16e\	.
.	.	16f\JJ	.
.	.	16f#\LL	.
.	.	16g\	.
.	8bb-/	16a\	.
.	.	16g\JJ	.
=343	=343	=343	=343
2.r	16ff/LL	8b-\	.
.	16gg/	.	.
.	16aa/	8r	.
.	16bb-/JJ	.	.
.	16bbn/LL	4.a\	.
.	16ccc/	.	.
.	16ddd/	.	.
.	16ccc/JJ	.	.
.	16bb-/LL	.	.
.	16aa/	.	.
.	16gg/	8a\	.
.	16ff/JJ	.	.
=344	=344	=344	=344
2.r	8ddd'/	16f#\LL	.
.	.	16g\	.
.	8r	16f#\	.
.	.	16en\JJ	.
.	4.ccc^/	16d\LL	.
.	.	16e\	.
.	.	16f#\	.
.	.	16g\JJ	.
.	.	16g#\LL	.
.	.	16a\	.
.	8ccc/	16b-\	.
.	.	16a\JJ	.
*clefG2	*	*	*
*	*v	*v	*
=345	=345	=345
8cc'\	16ggn\LL	.
.	16aa\	.
8r	16bb-\	.
.	16ccc\JJ	.
4.b-^\	16ccc#\LL	.
.	16ddd\	.
.	16eee-\	.
.	16ddd\JJ	.
.	16cccn\LL	.
.	16bb-\	.
8b-\	16aa\	.
.	16gg\JJ	.
=346	=346	=346
16a\LL	8fff'\	.
16b-\	.	.
16a\	8r	.
16g\JJ	.	.
16f\LL	4.eee-^\	.
16g\	.	.
16a\	.	.
16b-\JJ	.	.
16bn\LL	.	.
16cc\	.	.
16dd\	8eee-\	.
16cc\JJ	.	.
=347	=347	=347
8ee-'\	16bb-\LL	.
.	16ccc-\	.
8r	16ddd\	.
.	16eee-\JJ	<
4.dd\	16eeen\LL	.
.	16fff\	.
.	16ggg\	.
.	16fff\JJ	.
.	16eee\LL	.
.	16fff\	.
16ee-\LL	16ggg-\	.
16dd-\JJ	16fff\JJ	.
=348	=348	=348
(16bn\LL	(16dddn\LL	<
16cc\	16eee-\	.
16dd-\	16fff\	.
16cc\JJ)	16eee-\JJ)	.
(16a\LL	(16ccc\LL	.
16b-\	16ddd-\	.
16cc\	16eee-\	.
16b-\JJ)	16ddd-\JJ)	.
(16g#/LL	(16bbn\LL	.
16a/	16ccc\	.
16b-/	16ddd-\	.
16a/JJ)	16ccc\JJ)	.
*clefF4	*	*
=349	=349	=349
*	*^	*
8FFF/	8r	8ee-\	f
8r	8ggg-/	8r	.
2AA/	16ff/LL	[2g-\ 2cc\	.
.	16ee-/	.	.
.	16ff/	.	.
.	16ee-/JJ	.	.
.	16ff/LL	.	.
.	16ee-/	.	.
.	16ddn/	.	.
.	16ee-/JJ	.	.
=350	=350	=350	=350
4BB-/	4b-/ 4dd/	8g-\]	.
.	.	8B-\ 8f\L	.
8r	8r	8b-\J	.
16BB-/LL	16dd/LL	8r	.
16AA/JJ	16ee-/JJ	.	.
16GG/LL	16ff/LL	4r	.
16FF/	16gg/	.	.
16EE-/	16aa/	.	.
16DD/JJ	16bb-/JJ	.	.
=351	=351	=351	=351
4FF/	4ff/	8r	.
.	.	8d\L	.
8r	8r	8dd\J	.
(16GG/LL	16ff/LL	8r	.
16FF/JJ)	16gg/JJ	.	.
16EE-/LL	16aa/LL	4r	.
16DD/	16bb-/	.	.
16CC/	16ccc/	.	.
16BBB-/JJ	16ddd/JJ	.	.
=352	=352	=352	=352
4EE-/	4gg/	8r	.
.	.	8e-\L	.
8r	8r	8ee-\J	.
16EE-/LL	16gg/LL	8r	.
16DD/JJ	16aa/JJ	.	.
16CC/LL	16bb-/LL	4r	.
16DD/	16bbn/	.	.
16CC/	16ccc/	.	.
16BBB-/JJ	16ddd/JJ	.	.
=353	=353	=353	=353
8AAA/L	8eee-/L	4r	.
16AA/L	[8eeen/J	.	.
16GG/JJ	.	.	.
8FF/	16eee/LL]	8F/	.
.	16fff/	.	.
8r	16eee-/	8r	.
.	16ddd/JJ	.	.
4r	16ccc/LL	[4a\	.
.	16bb-/	.	.
.	16aa/	.	.
.	16gg/JJ	.	.
=354	=354	=354	=354
4r	16ff/LL	4a\]	.
.	16gg/	.	.
.	16ff/	.	.
.	16ee-/JJ	.	.
.	.	gq\LL	.
.	.	aq\JJ	.
8r	16dd/LL	4b-\	.
.	16ee-/	.	.
8BB-/	16ff/	.	.
.	16een/JJ	.	.
8d\	8ff/	8r	.
8r	8r	16b-\LL	.
.	.	16a\JJ	.
=355	=355	=355	=355
4r	4r	16g\LL	.
.	.	16f\	.
.	.	16e-\	.
.	.	16d\JJ	.
*clefG2	*	*	*
8Bn/	4r	4g\	.
8r	.	.	.
4r	[4ee-/	8r	.
.	.	16g\LL	.
.	.	16f\JJ	.
*clefF4	*	*	*
=356	=356	=356	=356
4r	4ee-/]	16e-\LL	.
.	.	16d\	.
.	.	16c\	.
.	.	(ddq/LL	.
.	.	ee-q/JJ)	.
.	.	16Bn\JJ	.
8r	4gg/	4e-\	.
8E-\	.	.	.
8c\	8r	8r	.
8r	16gg/LL	16e-\LL	.
.	16ff/JJ	16d\JJ	.
=357	=357	=357	=357
4r	16ee-/LL	16c\LL	.
.	16dd/	16Bn\	.
.	16cc/	16A\	.
.	16bn/JJ	16G\JJ	.
8CC/	4cc/	4e-\	.
8r	.	.	.
[4En\	8r	4g\	.
.	16cc/LL	.	.
.	16b-/JJ	.	.
=358	=358	=358	=358
4E\]	16a/LL	4c\	.
.	16g/	.	.
.	16f/	.	.
.	16en/JJ	.	.
4F\	4r	16d/LL	.
.	.	16c/	.
.	.	16B-/	.
.	.	16A/JJ	.
8r	8a/	8r	.
16F\LL	8r	16d\LL	.
16E-\JJ	.	16c\JJ	.
*	*v	*v	*
=359	=359	=359
16D\LL	16B-/LL	.
16C\	16A/	.
16BB-\	16G/	.
16AA\JJ	16F/JJ	.
*	*clefF4	*clefF4
4G\	16En\LL	.
.	16D\	.
.	16C\	.
.	16BB-\JJ	.
8r	8B-\	.
*	*clefG2	*clefG2
16G\LL	16ee-/LL	.
16F\JJ	16dd/JJ	.
=360	=360	=360
*	*^	*
16E-\LL	16cc/LL	4r	.
16D\	16b-/	.	.
16C\	16a/	.	.
16BB-\JJ	16g/JJ	.	.
4A\	16f/LL	4r	.
.	16e-/	.	.
.	16d/	.	.
.	16c/JJ	.	.
8r	8cc/	8r	.
16A\LL	8r	16c\LL	.
16G\JJ	.	16B-\JJ	.
=361	=361	=361	=361
*^	*	*	*
16F\LL	16A/LL	4r	4r	.
16E-\	16G/	.	.	.
16D\	16F/	.	.	.
16C\JJ	16E-/JJ	.	.	.
16BB-\LL	2r	4r	16F\LL	.
16A\	.	.	16c\	.
16G\	.	.	16B-\	.
16F\JJ	.	.	16A\JJ	.
16B-\LL	.	16dd/LL	8d\	.
16A\	.	16cc/	.	.
16d\	.	16ff/	8r	.
16c\JJ	.	16ee-/JJ	.	.
*v	*v	*	*	*
=362	=362	=362	=362
16B-\LL	16dd/LL	4r	.
16A\	16cc/	.	.
16G\	16b-/	.	.
16F\JJ	16a/JJ	.	.
16E-\LL	16gg/LL	4r	.
16D\	16ff/	.	.
16C\	16ee-/	.	.
16BB-\JJ	16dd/JJ	.	.
16GG/LL	16bb-/LL	4dd\	.
16AA/	16aa/	.	.
16BB-/	16gg/	.	.
16BBn/JJ	16ff/JJ	.	.
=363	=363	=363	=363
16C/LL	8ee-/	8g\L	.
16D/	.	.	.
16E-/	8r	8cc\J	.
16D/JJ	.	.	.
16C/LL	2aaa/	8r	.
16BB-/	.	.	.
16AA/	.	8ccc\	.
16GG/JJ	.	.	.
16FF/LL	.	8r	.
16EE-/	.	.	.
16DD/	.	8fff\	.
16CC/JJ	.	.	.
=364	=364	=364	=364
.	.	gggq/LL	.
.	.	aaaq/JJ	.
8BBB-/	4bbb-/	8r	.
8r	.	8ddd\	.
2D\	8r	4r	f
.	16bbb-/LL	.	.
.	16aaa/JJ	.	.
.	16ggg/LL	4r	.
.	16fff/	.	.
.	16eee-/	.	.
.	16ddd/JJ	.	.
=365	=365	=365	=365
8E-\	8ggg/L	8e-\	.
8r	8gg/J	8r	.
4r	8r	[2gg\	.
.	16ggg/LL	.	.
.	16fff/JJ	.	.
4r	16eee-/LL	.	.
.	16ddd/	.	.
.	16ccc/	.	.
.	16bb-/JJ	.	.
=366	=366	=366	=366
4r	4eee-/	8gg\L]	.
.	.	8gg#\J	.
8r	8r	8aa\	.
8En'\	16eee-/LL	8r	.
.	16ddd/JJ	.	.
4F'\	16ccc/LL	8r	.
.	16ddd/	.	.
.	16ccc/	8en\	.
.	16bb-/JJ	.	.
=367	=367	=367	=367
8r	16aa/LL	8f'\	.
.	16bb-/	.	.
8F\	16aa/	8r	.
.	16ggn/JJ	.	.
2r	16ff/LL	4.e-\ 4.g-\	.
.	16ggn/	.	.
.	16aa/	.	.
.	16bb-/JJ	.	.
.	16bbn/LL	.	.
.	16ccc/	.	.
.	16ddd/	8e-\ 8g-\	.
.	16ccc/JJ	.	.
=368	=368	=368	=368
2r	16bb-/LL	(8e-\ 8g-\L	.
.	16ccc/	.	.
.	16ddd/	8d\ 8f\	.
.	16eee-/JJ	.	.
.	16fff/LL	8c\ 8e-\	.
.	16aa-/	.	.
.	16aan/	8B-\) 8d\J	.
.	16bb-/JJ	.	.
16D\LL	8ccc/L	8aa-\L	.
16E-\	.	.	.
16D\	8bb-/J	8gg\J	.
16C\JJ	.	.	.
=369	=369	=369	=369
16BB-\LL	(8bb-/L	8gg\L	.
16C\	.	.	.
16D\	8aa-/	8ff\	.
16E-\JJ	.	.	.
16En\LL	8gg/	8b-\	.
16F\	.	.	.
16G\	8ff/J)	8a-\J	.
16F\JJ	.	.	.
16D\LL	8fff\ (8aaa-\L	4r	.
16E-\	.	.	.
16F\	8eee-\ 8ggg\J)	.	.
16E-\JJ	.	.	.
*	*v	*v	*
=370	=370	=370
16BBn\LL	8eee-\ (8ggg\L	.
16C\	.	.
16D\	8ccc\ 8eee-\J)	.
16E-\JJ	.	.
16En\LL	8bb-\ (8ddd\L	.
16F\	.	.
16G\	8ddd\ 8fff\J)	.
16F\JJ	.	.
(8FF/ 8F/L	8cc\ 8ee-\ (8aan\L	.
8BBB-/) 8BB-/J	8b-\ 8dd\ 8bb-\J)	.
=371	=371	=371
*^	*	*
2.r	4r	4r	.
.	4r	8aa-\	p
.	.	8r	.
.	8BBB-\	[4f#/	.
.	8r	.	.
=372	=372	=372	=372
4r	4D\	4f#/]	.
8e-/	8E-\	8gg-\	.
8r	8r	8r	.
*v	*v	*	*
*clefG2	*	*
*^	*	*
4gg-/	4r	([4e-/	.
*v	*v	*	*
*clefF4	*	*
=373	=373	=373
8GG-\ 8G-\	8.e-/L]	.
8r	.	.
.	32d/LL	.
.	32e-/JJJ	.
[2EEE-/	16g-/)	ff
*	*clefF4	*clefF4
.	16AA/LL	.
.	16C/	.
.	16E-/JJ	.
*	*clefG2	*clefG2
.	16G/LL	.
.	16A/	.
.	16c/	.
.	16e-/JJ	.
=374	=374	=374
2.EEE-/_	16g-/	.
.	16A\LL	.
.	16c\	.
.	16e-\JJ	.
.	16g-\LL	.
.	16a\	.
.	16cc\	.
.	16ee-\JJ	.
.	16gg-\	.
.	16a/LL	.
.	16cc/	.
.	16ee-/JJ	.
=375	=375	=375
2.EEE-/_	16gg-/LL	.
.	16aa/	.
.	16ccc/	.
.	16eee-/JJ	.
.	16ggg-/	.
.	16a\LL	.
.	16cc\	.
.	16ee-\JJ	.
.	16gg-\	.
.	16A/LL	.
.	16c/	.
.	16e-/JJ	.
=376	=376	=376
2EEE-/]	16g-/	.
*	*clefF4	*clefF4
.	16AA/LL	.
.	16C/	.
.	16E-/JJ	.
.	4G-\	.
[4FFF/ [4BBB-/	[4GG-/ [4AA/ [4E-/	.
=377	=377	=377
2.FFF/_ 2.BBB-/_	8GG-/] 8AA/] 8E-/L]	>
.	8FF/ 8AA-/ 8D/J	.
*	*clefG2	*clefG2
.	16b-/LL	pp
.	16a-/	.
.	16b-/	.
.	16a-/JJ	.
.	16b-/LL	.
.	16a-/	.
.	16g/	.
.	16a-/JJ	.
=378	=378	=378
*	*^	*
2.FFF/_ 2.BBB-/_	4cc-/	8r	.
.	.	8A-\L	.
.	8r	8a-\J	.
.	8gg/L	16cc-\LL	.
.	.	16b-\JJ	.
.	8aa-/J	16a-\LL	.
.	.	16g-\	.
.	8r	16f\	.
.	.	16e-\JJ	.
=379	=379	=379	=379
2.FFF/_ 2.BBB-/_	4a-/	8r	.
.	.	8F\L	.
.	8r	8f\J	.
.	8een/L	16a-\LL	.
.	.	16g-\JJ	.
.	8ff/J	16f\LL	.
.	.	16e-\	.
.	8r	16dn\	.
.	.	16c-\JJ	.
=380	=380	=380	=380
2.FFF/_ 2.BBB-/_	4g-/	8r	.
.	.	8E-\L	.
.	8r	8e-\J	.
.	8dd/L	16g-\LL	.
.	.	16f\JJ	.
.	8ee-/J	16e-\LL	.
.	.	16d-\	.
.	[8e-/	16c-\	.
.	.	16B-\JJ	.
=381	=381	=381	=381
2.FFF/_ 2.BBB-/_	16e-/LL]	8An\	.
.	16f/	.	.
.	16e-/	8r	.
.	16dn/JJ	.	.
.	16e-/LL	4.G-\	.
.	16d/	.	.
.	16cn/	.	.
.	16Bn/JJ	.	.
.	16c/LL	.	.
.	16B/	.	.
.	16c/	8G-\	.
.	16d-/JJ	.	.
*	*v	*v	*
*	*clefF4	*clefF4
=382	=382	=382
*	*^	*
2.FFF/] 2.BBB-/_	8e-/	8G-\L	.
.	8r	8F\J	.
.	4.c/	(8F\L	.
.	.	8E-\	.
.	.	8D\	.
.	8c/	8E-\J)	.
*	*v	*v	*
=383	=383	=383
*^	*	*
2.BBB-/_	4FFF\	8E-\ (8c\L	.
.	.	8D\ 8B-\J)	.
.	4FFF\	8E-\ (8A\L	.
.	.	8D\ 8B-\J)	.
.	4FFF\	8AA\ 8E-\ (8G-\L	.
.	.	8BB-\ 8D\ 8F\J)	.
=384	=384	=384	=384
2.BBB-/]	4FFF\	8G-\ 8A\ (8e-\L	.
.	.	8F\ 8B-\ 8d\J)	.
*	*	*clefG2	*clefG2
.	4FFF\	(8e-/ 8g-/ 8a/L	.
.	.	8d/) 8f/ 8b-/J	.
.	4FFF\	8a\ 8ee-\ (8gg-\L	.
.	.	8b-\ 8dd\ 8ff\J)	.
=385	=385	=385	=385
*v	*v	*	*
(4GGG-/ 4BBB-/ 4GG-/	2cc\ 2ee-\ (2aa\	p
2GGGn/) 2BBB-/ 2GGn/	.	.
.	ggnq/LL	.
.	aaq/JJ	.
.	4b-\ 4dd-\ &(4bb-\&))	.
=386	=386	=386
*	*^	*
2G\	4r	2en\	.
.	(4b-/ 4dd-/	.	.
.	.	dq\LL	.
.	.	eq\JJ)	.
4A\	4cc/	4f\	.
=387	=387	=387	=387
*^	*	*	*
2c/	4r	4r	2a\	.
.	4F\	(4ee-/	.	.
(B-q/LL	.	.	.	.
cq/JJ)	.	.	.	.
4A/ 4c/	4F\	4f/ 4cc/ 4ee-/	4r	pp
*v	*v	*	*	*
*	*v	*v	*
=388	=388	=388
4.F\ 4.A\ 4.c\	4.f/ 4.cc/ 4.ee-/	.
8r	16gg\LL	pp
.	16ff\JJ	.
4r	16ee-\LL	.
.	16ddn\	.
.	16cc\	.
.	16bn\JJ	.
=389	=389	=389
4r	4ee-\	.
8r	8r	.
16G\LL	16g/LL	.
16F\JJ	16f/JJ	.
16E-\LL	16e-/LL	.
16D\	16d/	.
16C\	16c/	.
16BBn\JJ	16Bn/JJ	.
=390	=390	=390
4E-\	4e-/	.
8r	8r	.
16g\LL	16gg\LL	.
16f\JJ	16ff\JJ	.
16e-\LL	16ee-\LL	.
16d\	16dd\	.
16c\	16cc\	.
16Bn\JJ	16bn\JJ	.
=391	=391	=391
16g\LL	16gg\LL	<
16f\	16ff\	.
16e-\	16ee-\	.
16d\JJ	16dd\JJ	.
16c\LL	16cc\LL	.
16B-\	16b-\	.
16A\	16a\	.
16G\JJ	16g\JJ	.
16F\LL	16f/LL	.
16E-\	16e-/	.
16D\	16d/	.
16C\JJ	16c/JJ	.
*	*clefF4	*clefF4
=392	=392	=392
16BB-/LL	16B-\LL	.
16AA/	16A\	.
16GG/	16G\	.
16FF/JJ	16F\JJ	.
16EE-/LL	16E-\LL	.
16DD/	16D\	.
16CC/	16C\	.
16BBB-/JJ	16BB-\JJ	.
16AAA/LL	16AA/LL	.
16GGG/	16GG/	.
16FFF/	16FF/	.
16EEEn/JJ	16EEn/JJ	.
*	*clefG2	*clefG2
=393	=393	=393
8FFF\ 8FF\	8F/	f
8r	8r	.
2AA/	2a\ 2aa\	.
=394	=394	=394
.	ggq/LL	.
.	aaq/JJ	.
8BB-'/	8b-\ 8bb-\	.
8r	8r	.
8GGG/	8G/ 8g/	.
8r	8r	.
[4BBn/	[4bn\ [4bbn\	.
=395	=395	=395
4BB/]	4b\] 4bb\]	.
.	(aaq/LL	.
.	bbnq/JJ)	.
8C/)	8cc\ 8ccc\	.
8r	8r	.
8AAA/	8A/ 8a/	.
8r	8r	.
=396	=396	=396
2C#/	2cc#\ 2ccc#\	.
.	bbnq/LL	.
.	ccc#q/JJ	.
4D/	4dd\ 4ddd\	.
=397	=397	=397
8BBB-/	8B-/ 8b-/	.
8r	8r	.
2D\	2dd\ 2ddd\	.
=398	=398	=398
.	(cccq/LL	.
.	dddq/JJ)	.
8E-\	8ee-\ 8eee-\	.
8r	8r	.
8CC/	8c/ 8cc/	.
8r	8r	.
[4En\	[4een\ [4eeen\	.
=399	=399	=399
4E\]	4ee\] 4eee\]	.
.	(dddq/LL	.
.	eee-q/JJ)	.
8F\	8ff\ 8fff\	.
8r	8r	.
8DD/	8d/ 8dd/	.
8r	8r	.
=400	=400	=400
2F#\	2ff#\ 2fff#\	.
.	(eeenq/LL	.
.	fff#q/JJ)	.
8G\	8gg\ 8ggg\	.
8r	8r	.
=401	=401	=401
8EE-/ 8E-/	8e-\ 8ee-\	.
8r	8r	.
4.F\ 4.c\ 4.e-\ 4.f\	4.aa\ 4.ccc\ 4.eee-\ 4.fffn\ 4.aaa\	.
8r	8r	.
=402	=402	=402
4.BB-\ 4.D\ 4.F\ 4.B-\	4.bb-\ 4.ddd\ 4.fff\ 4.bbb-\	.
8r	8r	.
[4FF/ [4C/ [4E-/ [4F/	[4a\ [4cc\ [4ee-\ [4ff\ [4aa\	.
=403	=403	=403
8FF/] 8C/] 8E-/] 8F/]	8a\] 8cc\] 8ee-\] 8ff\] 8aa\]	.
8r	8r	.
4r	4r	.
[4BBB-/ [4DD/ [4FF/ [4BB-/	[4b-\ [4dd\ [4ff\ [4bb-\	f
=404	=404	=404
2.BBB-;/] 2.DD;/] 2.FF;/] 2.BB-;/]	2.b-;\] 2.dd;\] 2.ff;\] 2.bb-;\]	.
==	==	==
*-	*-	*-
!!!ENC: Craig Stuart Sapp
!!!END: 2008/10/29/
